!!!!SEGMENT: pl-cz--iii-197--002_elsner-jozef--missa-c-op-22-gloria.krn
!!!cenid: 18xx:261
!!!COM: Elsner, Józef
!!!COM-rismid: pe30000957
!!!CDT: 1769/06/01-1854/04/18
!!!CNT: Polish
!!!OTL: Missa C op. 22 - Gloria
!!!PDT:
!!!AGN: Sacred; Mass
!!!SMS-siglum: PL-CZ
!!!SMS-shelfmark: III-197
!!!SMS-shelfwork: 001-002 M
!!!NIFC-rismid:
!!!URL-scan: http://repozytorium.nifc.pl/skany/pl-cz-nut--iii-197
!!!ONB-nifc: UWAGA: części Mszy: Kyrie, Gloria, Graduale, Credo, Offertorio, Sanctus, Benedictus, Agnus
**kern	**dynam	**kern	**text	**dynam	**kern	**text	**dynam	**kern	**text	**dynam	**kern	**text	**dynam	**kern	**dynam	**kern	**dynam	**kern	**dynam	**kern	**dynam	**kern	**dynam	**kern	**dynam	**kern	**dynam
*part12	*part12	*part11	*part11	*part11	*part10	*part10	*part10	*part9	*part9	*part9	*part8	*part8	*part8	*part7	*part7	*part6	*part6	*part5	*part5	*part4	*part4	*part3	*part3	*part2	*part2	*part1	*part1
*staff12	*	*staff11	*staff11	*	*staff10	*staff10	*	*staff9	*staff9	*	*staff8	*staff8	*	*staff7	*	*staff6	*	*staff5	*	*staff4	*	*staff3	*	*staff2	*	*staff1	*
*I"Baſso	*	*I"Baſso 2do	*	*	*I"Baſso 1mo	*	*	*I"Tenore 2do	*	*	*I"Tenore 1mo	*	*	*I"Tympano in C G	*	*I"Clarino 2do in C	*	*I"Clarino 1mo in C	*	*I"Corno 2do in C	*	*I"Corno 1mo in C	*	*I"Corno 2do in F	*	*I"Corno 1mo in F	*
*I'Cb	*	*I'B II	*	*	*I'B I	*	*	*I'T II	*	*	*I'T I	*	*	*I'Timp	*	*I'Clno II in C	*	*I'Clno I in C	*	*I'Cor II in C	*	*I'Cor I in C	*	*I'Cor II in F	*	*I'Cor I in F	*
*clefF4	*	*clefF4	*	*	*clefF4	*	*	*clefC4	*	*	*clefC4	*	*	*clefF4	*	*clefG2	*	*clefG2	*	*clefG2	*	*clefG2	*	*clefG2	*	*clefG2	*
*	*	*	*	*	*	*	*	*	*	*	*	*	*	*	*	*	*	*	*	*ITrd0c0	*	*ITrd0c0	*	*ITrd4c7	*	*ITrd4c7	*
*k[]	*	*k[]	*	*	*k[]	*	*	*k[]	*	*	*k[]	*	*	*k[]	*	*k[]	*	*k[]	*	*k[]	*	*k[]	*	*k[b-]	*	*k[b-]	*
*C:	*	*C:	*	*	*C:	*	*	*C:	*	*	*C:	*	*	*C:	*	*C:	*	*C:	*	*C:	*	*C:	*	*C:	*	*C:	*
*M6/8	*	*M6/8	*	*	*M6/8	*	*	*M6/8	*	*	*M6/8	*	*	*M6/8	*	*M6/8	*	*M6/8	*	*M6/8	*	*M6/8	*	*M6/8	*	*M6/8	*
=1	=1	=1	=1	=1	=1	=1	=1	=1	=1	=1	=1	=1	=1	=1	=1	=1	=1	=1	=1	=1	=1	=1	=1	=1	=1	=1	=1
*	*	*4\right	*	*	*4\right	*	*	*	*	*	*4\right	*	*below	*tremolo	*	*	*	*	*	*	*	*4\right	*	*	*	*4\right	*
!	!	!	!	!	!LO:SIC:o=:v:laseczki nut w dół z prawej strony	!	!	!	!	!	!LO:SIC:o=:v:laseczki nut w dół z prawej strony	!	!	!	!	!	!	!	!	!	!	!LO:SIC:o=:v:laseczki nut w dół z prawej strony	!	!	!	!LO:TX:a:B:i:t=Allegro ma non troppo	!
!LO:TX:a:B:i:t=Allegro non troppo.	!	!LO:TX:a:B:i:t=Allegro non troppo	!	!	!LO:TX:a:B:i:t=Allegro non troppo	!	!	!LO:TX:a:B:i:t=Allegro non troppo	!	!	!LO:TX:a:B:i:t=Allegro non troppo	!	!	!LO:TX:a:B:i:t=Allegro non troppo	!	!LO:TX:a:B:i:t=Allo non troppo	!	!LO:TX:a:B:i:t=Allegro ma non troppo.	!	!LO:TX:a:B:i:t=Allegro non troppo	!	!LO:TX:a:B:i:t=Allegro non troppo.	!	!LO:TX:a:B:i:t=Allegro non troppo	!	!LO:SIC:o=:v:laseczki nut w dół z prawej strony	!
!	!LO:DY:rj	!	!	!LO:DY:rj	!	!	!LO:DY:rj	!	!	!LO:DY:rj	!	!	!	!	!LO:DY:rj	!	!LO:DY:rj	!	!LO:DY:rj	!	!LO:DY:rj	!	!	!	!LO:DY:rj	!	!LO:DY:rj
[4.C/	f	[4.C/	Glo-	f	[4.E\	Glo-	f	[4.G/	Glo-	f	[4.c\	Glo-	f	16C/LL	f	8.c/L	f	8.c/L	f	4.e/	f	4.cc\	.	[4.c/	f	[4.g\	f
.	.	.	.	.	.	.	.	.	.	.	.	.	.	16C/	.	.	.	.	.	.	.	.	.	.	.	.	.
.	.	.	.	.	.	.	.	.	.	.	.	.	.	16C/	.	.	.	.	.	.	.	.	.	.	.	.	.
.	.	.	.	.	.	.	.	.	.	.	.	.	.	16C/	.	16e/K	.	16e/K	.	.	.	.	.	.	.	.	.
.	.	.	.	.	.	.	.	.	.	.	.	.	.	16C/	.	8g/J	.	8g/J	.	.	.	.	.	.	.	.	.
.	.	.	.	.	.	.	.	.	.	.	.	.	.	16C/JJ	.	.	.	.	.	.	.	.	.	.	.	.	.
!	!	!	!	!	!	!	!	!	!	!	!	!	!	!	!	!	!	!LO:SIC:o=:v:laseczki nut w dół z prawej strony	!	!	!	!	!	!	!	!	!
*	*	*8\right	*	*	*8\right	*	*	*	*	*	*8\right	*	*	*	*	*	*	*4\right	*	*	*	*8\right	*	*	*	*8\right	*
8C/]	.	8.C/]	.	.	8.E\]	.	.	8.G/]	.	.	8.c\]	.	.	8C/	.	4e/	.	4cc\	.	8e/	.	8cc\	.	8c/]	.	8g\]	.
8r	.	.	.	.	.	.	.	.	.	.	.	.	.	8r	.	.	.	.	.	8r	.	8r	.	8r	.	8r	.
*	*	*16\right	*	*	*16\right	*	*	*	*	*	*16\right	*	*	*	*	*	*	*	*	*	*	*	*	*	*	*	*
.	.	16C/	-ri-	.	16E\	-ri-	.	16G/	-ri-	.	16B\	-ri-	.	.	.	.	.	.	.	.	.	.	.	.	.	.	.
8r	.	8C/	-a	.	8E\	-a	.	8G/	-a	.	8c\	-a	.	8r	.	8r	.	8r	.	8r	.	8r	.	8r	.	8r	.
=2	=2	=2	=2	=2	=2	=2	=2	=2	=2	=2	=2	=2	=2	=2	=2	=2	=2	=2	=2	=2	=2	=2	=2	=2	=2	=2	=2
*	*	*	*	*	*	*	*	*4\right	*	*	*	*	*	*	*	*	*	*	*	*4\right	*	*	*	*4\right	*	*	*
!	!	!	!	!	!	!	!	!LO:SIC:o=:v:laseczki nut w dół z prawej strony	!	!	!	!	!	!	!	!	!	!	!	!LO:SIC:o=:v:laseczki nut w dół z prawej strony	!	!	!	!LO:SIC:o=:v:laseczki nut w dół z prawej strony	!	!	!
[4.GG/	.	4GG/	in	.	4G\	in	.	4B\	in	.	4d\	in	.	16GG/LL	.	4.g/	.	4.dd\	.	4.b\	.	4.dd\	.	4.g\	.	[4.g\	.
.	.	.	.	.	.	.	.	.	.	.	.	.	.	16GG/	.	.	.	.	.	.	.	.	.	.	.	.	.
.	.	.	.	.	.	.	.	.	.	.	.	.	.	16GG/	.	.	.	.	.	.	.	.	.	.	.	.	.
.	.	.	.	.	.	.	.	.	.	.	.	.	.	16GG/	.	.	.	.	.	.	.	.	.	.	.	.	.
*	*	*	*	*	*	*	*	*8\right	*	*	*	*	*	*	*	*	*	*8\right	*	*8\right	*	*	*	*8\right	*	*	*
.	.	8GG/	ex-	.	8G\	ex-	.	8B\	ex-	.	8d\	ex-	.	16GG/	.	.	.	.	.	.	.	.	.	.	.	.	.
.	.	.	.	.	.	.	.	.	.	.	.	.	.	16GG/JJ	.	.	.	.	.	.	.	.	.	.	.	.	.
!	!	!LO:SIC:o=:v:laseczki nut w dół z prawej strony	!	!	!	!	!	!	!	!	!	!	!	!	!	!	!	!	!	!	!	!	!	!	!	!	!
8GG/]	.	4G\	-cel-	.	4G\	-cel-	.	8.B\	-cel-	.	(8.d\	-cel-	.	8GG/	.	8g/	.	8dd\	.	8b\	.	8dd\	.	8g\	.	8g\]	.
8r	.	.	.	.	.	.	.	.	.	.	.	.	.	8r	.	8r	.	8r	.	8r	.	8r	.	8r	.	8r	.
*	*	*	*	*	*	*	*	*16\right	*	*	*	*	*	*	*	*	*	*	*	*	*	*	*	*	*	*	*
.	.	.	.	.	.	.	.	16A#X\	.	.	16c#X\)	.	.	.	.	.	.	.	.	.	.	.	.	.	.	.	.
8r	.	8G\	-sis	.	8G\	-sis	.	8B\	-sis	.	8d\	-sis	.	8r	.	8r	.	8r	.	8r	.	8r	.	8r	.	8r	.
=3	=3	=3	=3	=3	=3	=3	=3	=3	=3	=3	=3	=3	=3	=3	=3	=3	=3	=3	=3	=3	=3	=3	=3	=3	=3	=3	=3
*	*	*	*	*	*	*	*	*	*	*	*	*	*	*	*	*	*	*	*	*2\right	*	*2\right	*	*	*	*2\right	*
!	!	!	!	!	!	!	!	!	!	!	!	!	!	!LO:TX:a:i:t=5.	!	!LO:TX:a:i:t=5.	!	!LO:TX:a:i:t=5.	!	!	!	!	!	!	!	!	!
!	!	!	!	!	!	!	!	!	!	!	!	!	!	!LO:N:vis=00	!	!LO:N:vis=00	!	!LO:N:vis=00	!	!	!	!	!	!	!	!	!
2.C/	.	4.C/	De-	.	4.G\	De-	.	4.c\	De-	.	4.e\	De-	.	0.r	.	0.r	.	0.r	.	2.cc\	.	2.ee\	.	2.c/	.	2.g\	.
.	.	4C/	-o	.	4E\	-o	.	4G\	-o	.	4c\	-o	.	.	.	.	.	.	.	.	.	.	.	.	.	.	.
.	.	8r	.	.	8r	.	.	8r	.	.	8r	.	.	.	.	.	.	.	.	.	.	.	.	.	.	.	.
=4	=4	=4	=4	=4	=4	=4	=4	=4	=4	=4	=4	=4	=4	=4	=4	=4	=4	=4	=4	=4	=4	=4	=4	=4	=4	=4	=4
!	!	!	!	!LO:DY:rj	!	!	!LO:DY:rj	!	!	!	!	!	!	!	!	!	!	!	!	!LO:TX:a:i:t=1.	!	!LO:TX:a:i:t=1	!	!LO:TX:a:i:t=1	!	!LO:TX:a:i:t=1	!
2.r	.	4C/	glo-	p	4G\	glo-	p	4c\	glo-	p	4e\	glo-	p	.	.	.	.	.	.	2.r	.	2.r	.	2.r	.	2.r	.
.	.	8C/	-ri-	.	8G\	-ri-	.	8c\	-ri-	.	8e\	-ri-	.	.	.	.	.	.	.	.	.	.	.	.	.	.	.
.	.	4C/	-a	.	4E\	-a	.	4G/	-a	.	4c\	-a	.	.	.	.	.	.	.	.	.	.	.	.	.	.	.
.	.	8r	.	.	8r	.	.	8r	.	.	8r	.	.	.	.	.	.	.	.	.	.	.	.	.	.	.	.
=5	=5	=5	=5	=5	=5	=5	=5	=5	=5	=5	=5	=5	=5	=5	=5	=5	=5	=5	=5	=5	=5	=5	=5	=5	=5	=5	=5
!	!	!	!	!	!	!	!	!LO:LB:g=original	!	!	!LO:LB:g=original	!	!	!	!	!	!	!	!	!	!	!	!	!	!	!	!
*	*	*	*	*	*	*	*	*	*	*	*	*	*	*	*	*	*	*	*	*	*	*	*	*2\right	*	*	*
!	!	!	!	!LO:DY:a	!	!	!LO:DY:rj	!	!	!LO:DY:a	!	!	!LO:DY:a	!	!	!	!	!	!	!	!	!	!	!	!	!	!
2.C/	.	4C/	et	p	4C/	et	mf	4A\	Et	mf	4f\	Et	mf	.	.	.	.	.	.	4.cc\	.	4.cc\	.	2.f\	.	4.a\	.
.	.	8C/	in	.	8C/	in	.	8A\	in	.	8f\	in	.	.	.	.	.	.	.	.	.	.	.	.	.	.	.
.	.	4C/	ter-	.	4F\	ter-	.	4B\	ter-	.	4d\	ter-	.	.	.	.	.	.	.	4.b\	.	4.dd\	.	.	.	4.f\	.
.	.	8C/	-ra	.	8F\	-ra	.	8B\	-ra	.	8d\	-ra	.	.	.	.	.	.	.	.	.	.	.	.	.	.	.
=6	=6	=6	=6	=6	=6	=6	=6	=6	=6	=6	=6	=6	=6	=6	=6	=6	=6	=6	=6	=6	=6	=6	=6	=6	=6	=6	=6
!	!	!LO:LB:g=original	!	!	!LO:LB:g=original	!	!	!	!	!	!	!	!	!	!	!	!	!	!	!	!	!	!	!	!	!	!
8C/	.	8.C/L	pax	.	8.E\L	pax	.	4c\	pax	.	4c\	pax	.	.	.	.	.	.	.	8cc\	.	8.cc\L	.	8c/	.	8.e\L	.
8r	.	.	.	.	.	.	.	.	.	.	.	.	.	.	.	.	.	.	.	8r	.	.	.	8r	.	.	.
*	*	*	*	*	*	*	*	*	*	*	*	*	*	*	*	*	*	*	*	*	*	*16\right	*	*	*	*16\right	*
.	.	16D/Jk	.	.	16F\Jk	.	.	.	.	.	.	.	.	.	.	.	.	.	.	.	.	16dd\K	.	.	.	16f\K	.
8r	.	8E/	ho-	.	8G\	ho-	.	8r	.	.	8r	.	.	.	.	.	.	.	.	8r	.	8ee\J	.	8r	.	8g\J	.
8C/	.	8.E/L	-mi-	.	8.G\L	-mi-	.	4r	.	.	4r	.	.	.	.	.	.	.	.	8cc\	.	8.ee\L	.	8c/	.	8.g\L	.
8r	.	.	.	.	.	.	.	.	.	.	.	.	.	.	.	.	.	.	.	8r	.	.	.	8r	.	.	.
.	.	16D/Jk	-ni-	.	16F\Jk	-ni-	.	.	.	.	.	.	.	.	.	.	.	.	.	.	.	16ff\K	.	.	.	16f\K	.
8r	.	8C/	-bus	.	8E\	-bus	.	8r	.	.	8r	.	.	.	.	.	.	.	.	8r	.	8ee\J	.	8r	.	8e\J	.
=7	=7	=7	=7	=7	=7	=7	=7	=7	=7	=7	=7	=7	=7	=7	=7	=7	=7	=7	=7	=7	=7	=7	=7	=7	=7	=7	=7
!	!	!	!	!	!	!	!	!	!	!	!	!	!	!	!	!	!	!	!	!	!	!	!	!	!	!LO:LB:g=original	!
2.C/	.	4C/	pax	.	4C/	pax	.	4A\	pax	.	4f\	pax	.	2.r	.	2.r	.	2.r	.	4.cc\	.	4.cc\	.	2.f\	.	4.a\	.
.	.	8C/	ho-	.	8C/	ho-	.	8A\	ho-	.	8f\	ho-	.	.	.	.	.	.	.	.	.	.	.	.	.	.	.
.	.	4C/	-mi-	.	4F\	-mi-	.	4B\	-mi-	.	4d\	-mi-	.	.	.	.	.	.	.	4.b\	.	4.dd\	.	.	.	4.f\	.
.	.	8C/	-ni-	.	8F\	-ni-	.	8B\	-ni-	.	8d\	-ni-	.	.	.	.	.	.	.	.	.	.	.	.	.	.	.
=8	=8	=8	=8	=8	=8	=8	=8	=8	=8	=8	=8	=8	=8	=8	=8	=8	=8	=8	=8	=8	=8	=8	=8	=8	=8	=8	=8
!	!	!	!	!	!	!	!	!	!	!	!	!	!	!	!	!	!	!	!	!LO:LB:g=original	!	!LO:LB:g=original	!	!LO:LB:g=original	!	!	!
8C/	.	8.C/L	-bus	.	8.E\L	-bus	.	4c\	-bus	.	4c\	-bus	.	8C/	.	8e/	.	8cc\	.	8cc\	.	8.cc\L	.	8c/	.	8.e\L	.
8r	.	.	.	.	.	.	.	.	.	.	.	.	.	8r	.	8r	.	8r	.	8r	.	.	.	8r	.	.	.
.	.	16D/Jk	.	.	16F\Jk	.	.	.	.	.	.	.	.	.	.	.	.	.	.	.	.	16dd\K	.	.	.	16f\K	.
8r	.	8E/	ho-	.	8G\	ho-	.	8r	.	.	8r	.	.	8r	.	8r	.	8r	.	8r	.	8ee\J	.	8r	.	8g\J	.
8C/	.	8.E/L	-mi-	.	8.G\L	-mi-	.	4r	.	.	4r	.	.	8C/	.	8e/	.	8cc\	.	8cc\	.	8.ee\L	.	8c/	.	8.g\L	.
8r	.	.	.	.	.	.	.	.	.	.	.	.	.	8r	.	8r	.	8r	.	8r	.	.	.	8r	.	.	.
.	.	16D/Jk	.	.	16F\Jk	-ni-	.	.	.	.	.	.	.	.	.	.	.	.	.	.	.	16dd\K	.	.	.	16f\K	.
8r	.	8C/	-ni-	.	8E\	-bus	.	8r	.	.	8r	.	.	8r	.	8r	.	8r	.	8r	.	8cc\J	.	8r	.	8e\J	.
=9	=9	=9	=9	=9	=9	=9	=9	=9	=9	=9	=9	=9	=9	=9	=9	=9	=9	=9	=9	=9	=9	=9	=9	=9	=9	=9	=9
!LO:LB:g=original	!	!	!	!	!	!	!	!	!	!	!	!	!	!	!	!	!	!	!	!	!	!	!	!	!	!	!
8GG/	.	4GG/	-bus	.	4G\	bo-	.	4B\	bo-	.	4d\	bo-	.	8GG/	.	8g/	.	8dd\	.	8b\	.	8dd\	.	8g\	.	8g\	.
8r	.	.	.	.	.	.	.	.	.	.	.	.	.	8r	.	8r	.	8r	.	8r	.	8r	.	8r	.	8r	.
8r	.	8GG/	.	.	8G\	-ne	.	8B\	-ne	.	8d\	-ne	.	8r	.	8r	.	8r	.	8r	.	8r	.	8r	.	8r	.
*8\right	*	*	*	*	*	*	*	*	*	*	*	*	*	*	*	*	*	*	*	*	*	*	*	*	*	*	*
!LO:SIC:o=:v:laseczki nut w dół z prawej strony	!	!	!	!	!	!	!	!	!	!	!	!	!	!	!	!	!	!	!	!	!	!	!	!	!	!	!
8G\	.	4G\	vo-	.	4G\	vo-	.	8.B\L	vo-	.	8.d\L	vo-	.	8GG/	.	8g/	.	8dd\	.	8b\	.	8dd\	.	8g\	.	8g\	.
8r	.	.	.	.	.	.	.	.	.	.	.	.	.	8r	.	8r	.	8r	.	8r	.	8r	.	8r	.	8r	.
.	.	.	.	.	.	.	.	16A#X\Jk	.	.	16c#X\Jk	.	.	.	.	.	.	.	.	.	.	.	.	.	.	.	.
8r	.	8G\	-lun-	.	8G\	-lun-	.	8B\	-lun-	.	8d\	-lun-	.	8r	.	8r	.	8r	.	8r	.	8r	.	8r	.	8r	.
=10	=10	=10	=10	=10	=10	=10	=10	=10	=10	=10	=10	=10	=10	=10	=10	=10	=10	=10	=10	=10	=10	=10	=10	=10	=10	=10	=10
!	!	!	!	!	!	!	!	!	!	!	!	!	!	!LO:LB:g=original	!	!	!	!LO:LB:g=original	!	!	!	!	!	!	!	!	!
4.C/	.	4.C/	-ta-	.	4.G\	-ta-	.	4.c\	-ta-	.	4.e\	-ta-	.	16C/LL	.	4.e/	.	4.cc\	.	4.cc\	.	4.ee\	.	4.c/	.	4.g\	.
.	.	.	.	.	.	.	.	.	.	.	.	.	.	16C/	.	.	.	.	.	.	.	.	.	.	.	.	.
.	.	.	.	.	.	.	.	.	.	.	.	.	.	16C/	.	.	.	.	.	.	.	.	.	.	.	.	.
.	.	.	.	.	.	.	.	.	.	.	.	.	.	16C/	.	.	.	.	.	.	.	.	.	.	.	.	.
.	.	.	.	.	.	.	.	.	.	.	.	.	.	16C/	.	.	.	.	.	.	.	.	.	.	.	.	.
.	.	.	.	.	.	.	.	.	.	.	.	.	.	16C/JJ	.	.	.	.	.	.	.	.	.	.	.	.	.
*	*	*	*	*	*	*	*	*	*	*	*	*	*	*	*	*	*	*	*	*	*	*	*	*tremolo	*	*	*
4C/	.	4C/	-tis	.	4E\	-tis	.	4G/	-tis,	.	4c\	-tis	.	4C/	.	4e/	.	4cc\	.	8cc\L	.	8ee\L	.	8c/L	.	8g\L	.
.	.	.	.	.	.	.	.	.	.	.	.	.	.	.	.	.	.	.	.	8cc\	.	8cc\	.	8c/	.	8c\	.
8r	.	8C/	Lau-	.	8C\	lau-	.	8r	.	.	8r	.	.	8r	.	8r	.	8r	.	8cc\J	.	8cc\J	.	8c/J	.	8c\J	.
*	*	*	*	*	*	*	*	*	*	*	*	*	*	*	*	*	*	*	*	*	*	*	*	*Xtremolo	*	*	*
=11	=11	=11	=11	=11	=11	=11	=11	=11	=11	=11	=11	=11	=11	=11	=11	=11	=11	=11	=11	=11	=11	=11	=11	=11	=11	=11	=11
!	!	!LO:LB:g=original	!	!	!	!	!	!	!	!	!	!	!	!	!	!LO:LB:g=original	!	!	!	!	!	!	!	!	!	!	!
!	!	!	!	!	!	!	!	!	!	!	!	!	!	!LO:TX:a:i:t=3.	!	!LO:TX:a:i:t=3.	!	!LO:TX:a:i:t=3.	!	!	!	!	!	!	!	!	!
!	!	!	!	!	!	!	!	!	!	!	!	!	!	!LO:N:vis=0	!	!LO:N:vis=0	!	!LO:N:Vis=0	!	!	!	!	!	!	!	!	!
2.C/	.	4.C/	-da-	.	4.C/	-da-	.	4.A\	Lau-	.	4.f\	lau-	.	1.r	.	1.r	.	1.r	.	4.cc\	.	4.cc\	.	2.f\	.	4.a\	.
.	.	4.C/	-mus	.	4.F\	-mus	.	4B\	-da-	.	4d\	-da-	.	.	.	.	.	.	.	4.b\	.	4.dd\	.	.	.	4.f\	.
.	.	.	.	.	.	.	.	8B\	-mus	.	8d\	-mus	.	.	.	.	.	.	.	.	.	.	.	.	.	.	.
=12	=12	=12	=12	=12	=12	=12	=12	=12	=12	=12	=12	=12	=12	=12	=12	=12	=12	=12	=12	=12	=12	=12	=12	=12	=12	=12	=12
!	!	!	!	!	!LO:LB:g=original	!	!	!LO:LB:g=original	!	!	!LO:LB:g=original	!	!	!	!	!	!	!	!	!	!	!	!	!	!	!	!
8C/	.	8.C/L	te	.	8.E\L	te	.	4c\	te	.	4c\	te	.	.	.	.	.	.	.	8cc\	.	8.cc\L	.	8c/	.	8.e\L	.
8r	.	.	.	.	.	.	.	.	.	.	.	.	.	.	.	.	.	.	.	8r	.	.	.	8r	.	.	.
.	.	16D/K	be-	.	16F\Jk	.	.	.	.	.	.	.	.	.	.	.	.	.	.	.	.	16dd\K	.	.	.	16f\K	.
8r	.	8E/J	.	.	8G\	.	.	8r	.	.	8r	.	.	.	.	.	.	.	.	8r	.	8ee\J	.	8r	.	8g\J	.
8C/	.	8.E/L	.	.	8.G\L	be-	.	4r	.	.	4r	.	.	.	.	.	.	.	.	8cc\	.	8.ee\L	.	8c/	.	8.g\L	.
8r	.	.	.	.	.	.	.	.	.	.	.	.	.	.	.	.	.	.	.	8r	.	.	.	8r	.	.	.
.	.	16D/Jk	.	.	16F\Jk	.	.	.	.	.	.	.	.	.	.	.	.	.	.	.	.	16dd\K	.	.	.	16f\K	.
8r	.	8C/	-ne	.	8E\	-ne-	.	8r	.	.	8r	.	.	.	.	.	.	.	.	8r	.	8cc\J	.	8r	.	8e\J	.
=13	=13	=13	=13	=13	=13	=13	=13	=13	=13	=13	=13	=13	=13	=13	=13	=13	=13	=13	=13	=13	=13	=13	=13	=13	=13	=13	=13
2.C/	.	4C/	di-	.	4C/	-di-	.	4A\	be-	.	4f\	be-	.	2.r	.	2.r	.	2.r	.	4.cc\	.	4.cc\	.	2.f\	.	4.a\	.
.	.	8C/	-ci-	.	8C/	-ci-	.	8A\	-ne-	.	8f\	-ne-	.	.	.	.	.	.	.	.	.	.	.	.	.	.	.
.	.	4.C/	-mus	.	4.F\	-mus	.	8.B\	-di-	.	8.d\	-di-	.	.	.	.	.	.	.	4.b\	.	4.dd\	.	.	.	4.f\	.
.	.	.	.	.	.	.	.	16B\	-ci-	.	16d\	-ci-	.	.	.	.	.	.	.	.	.	.	.	.	.	.	.
.	.	.	.	.	.	.	.	8B\	-mus	.	8d\	-mus	.	.	.	.	.	.	.	.	.	.	.	.	.	.	.
=14	=14	=14	=14	=14	=14	=14	=14	=14	=14	=14	=14	=14	=14	=14	=14	=14	=14	=14	=14	=14	=14	=14	=14	=14	=14	=14	=14
!	!	!	!	!	!	!	!	!	!	!	!	!	!	!	!	!	!	!	!	!	!	!	!	!	!	!LO:LB:g=original	!
8C/	.	8.C/L	te	.	8.E\L	te	.	4c\	te	.	4c\	te	.	8C/	.	8e/	.	8cc\	.	8cc\	.	8.cc\L	.	8c/	.	8.e\L	.
8r	.	.	.	.	.	.	.	.	.	.	.	.	.	8r	.	8r	.	8r	.	8r	.	.	.	8r	.	.	.
.	.	16D/Jk	.	.	16F\K	.	.	.	.	.	.	.	.	.	.	.	.	.	.	.	.	16dd\K	.	.	.	16f\K	.
8r	.	8E/	.	.	8G\J	.	.	8r	.	.	8r	.	.	8r	.	8r	.	8r	.	8r	.	8ee\J	.	8r	.	8g\J	.
8C/	.	8.E/L	a-	.	8.G\L	a-	.	4r	.	.	4r	.	.	8C/	.	8e/	.	8cc\	.	8cc\	.	8.ee\L	.	8c/	.	8.g\L	.
8r	.	.	.	.	.	.	.	.	.	.	.	.	.	8r	.	8r	.	8r	.	8r	.	.	.	8r	.	.	.
.	.	16D/Jk	-do-	.	16F\Jk	.	.	.	.	.	.	.	.	.	.	.	.	.	.	.	.	16dd\K	.	.	.	16f\K	.
8r	.	8C/	.	.	8E\	-do-	.	8r	.	.	8r	.	.	8r	.	8r	.	8r	.	8r	.	8cc\J	.	8r	.	8e\J	.
=15	=15	=15	=15	=15	=15	=15	=15	=15	=15	=15	=15	=15	=15	=15	=15	=15	=15	=15	=15	=15	=15	=15	=15	=15	=15	=15	=15
!	!	!	!	!	!	!	!	!	!	!	!	!	!	!	!	!	!	!	!	!LO:LB:g=original	!	!	!	!	!	!	!
8GG/	.	4.GG/	-ra-	.	4.G\	-ra-	.	4B\	a-	.	4d\	a-	.	8GG/	.	8g/	.	8dd\	.	8b\	.	8dd\	.	8g\	.	8g\	.
8r	.	.	.	.	.	.	.	.	.	.	.	.	.	8r	.	8r	.	8r	.	8r	.	8r	.	8r	.	8r	.
8r	.	.	.	.	.	.	.	8B\	-do-	.	8d\	-do-	.	8r	.	8r	.	8r	.	8r	.	8r	.	8r	.	8r	.
8G\	.	4.G\	-mus	.	4.G\	-mus	.	8.B\L	-ra-	.	8.d\L	-ra-	.	8GG/	.	8g/	.	8dd\	.	8b\	.	8dd\	.	8g\	.	8g\	.
8r	.	.	.	.	.	.	.	.	.	.	.	.	.	8r	.	8r	.	8r	.	8r	.	8r	.	8r	.	8r	.
.	.	.	.	.	.	.	.	16A#X\Jk	.	.	16c#X\Jk	.	.	.	.	.	.	.	.	.	.	.	.	.	.	.	.
8r	.	.	.	.	.	.	.	8B\	-mus	.	8d\	-mus	.	8r	.	8r	.	8r	.	8r	.	8r	.	8r	.	8r	.
=16	=16	=16	=16	=16	=16	=16	=16	=16	=16	=16	=16	=16	=16	=16	=16	=16	=16	=16	=16	=16	=16	=16	=16	=16	=16	=16	=16
!	!	!	!	!	!	!	!	!	!	!	!	!	!	!	!	!	!	!	!	!	!	!LO:LB:g=original	!	!	!	!	!
*	*	*	*	*	*	*	*	*	*	*	*	*	*	*	*	*	*	*	*	*	*	*	*	*	*	*rep	*
8C\	.	4C\	te	.	4G\	te	.	8.c\L	te	.	8.e\L	te	.	8C/	.	8e/	.	8cc\	.	8cc\	.	8ee\	.	8c/	.	8g\	.
8r	.	.	.	.	.	.	.	.	.	.	.	.	.	8r	.	8r	.	8r	.	8r	.	8r	.	8r	.	8r	.
.	.	.	.	.	.	.	.	16d\Jk	.	.	16f\K	.	.	.	.	.	.	.	.	.	.	.	.	.	.	.	.
8r	.	8E\	glo-	.	8G\	glo-	.	8c\	glo-	.	8e\J	glo-	.	8r	.	8r	.	8r	.	8r	.	8r	.	8r	.	8r	.
8G\	.	4G\	-ri-	.	4G\	-ri-	.	8.B\L	-ri-	.	8.d\L	-ri-	.	8GG/	.	4r	.	4r	.	8b\	.	8dd\	.	8g\	.	8g\	.
8r	.	.	.	.	.	.	.	.	.	.	.	.	.	8r	.	.	.	.	.	8r	.	8r	.	8r	.	8r	.
.	.	.	.	.	.	.	.	16c\Jk	.	.	16e\Jk	-fi-	.	.	.	.	.	.	.	.	.	.	.	.	.	.	.
8r	.	8G\	-fi-	.	8G\	-fi-	.	8B\	-fi-	.	(8d\	-ca-	.	8r	.	8r	.	8r	.	8r	.	8r	.	8r	.	8r	.
*	*	*	*	*	*	*	*	*	*	*	*	*	*	*	*	*	*	*	*	*	*	*	*	*	*	*Xrep	*
=17	=17	=17	=17	=17	=17	=17	=17	=17	=17	=17	=17	=17	=17	=17	=17	=17	=17	=17	=17	=17	=17	=17	=17	=17	=17	=17	=17
!LO:LB:g=original	!	!LO:LB:g=original	!	!	!	!	!	!	!	!	!LO:LB:g=original	!	!	!	!	!	!	!	!	!	!	!	!	!LO:LB:g=original	!	!	!
*	*	*	*	*	*	*	*	*	*	*	*	*	*	*rep	*	*	*	*	*	*	*	*	*	*	*	*rep	*
8C\	.	8.C/	-ca-	.	8.G\	-ca-	.	8.c\	-ca-	.	8.e\)	.	.	8C/	.	8e/	.	8cc\	.	8cc\	.	8ee\	.	8c/	.	8g\	.
8r	.	.	.	.	.	.	.	.	.	.	.	.	.	8r	.	8r	.	8r	.	8r	.	8r	.	8r	.	8r	.
.	.	16C/	-mus	.	16G\	-mus	.	16d\	-mus	.	16f\	-mus	.	.	.	.	.	.	.	.	.	.	.	.	.	.	.
8r	.	16C/LL	glo-	.	8G\	glo-	.	8c\	glo-	.	8e\	glo-	.	8r	.	8r	.	8r	.	8r	.	8r	.	8r	.	8r	.
.	.	16E/JJ	.	.	.	.	.	.	.	.	.	.	.	.	.	.	.	.	.	.	.	.	.	.	.	.	.
8G\	.	4G\	-ri-	.	4G\	-ri-	.	(8.B\	-ri-	.	8.d\	-ri-	.	8GG/	.	8g/	.	8dd\	.	8b\	.	8dd\	.	8g\	.	8g\	.
8r	.	.	.	.	.	.	.	.	.	.	.	.	.	8r	.	8r	.	8r	.	8r	.	8r	.	8r	.	8r	.
.	.	.	.	.	.	.	.	16A#X\)	.	.	16c#X\	-fi-	.	.	.	.	.	.	.	.	.	.	.	.	.	.	.
8r	.	8G\	-fi-	.	8G\	-fi-	.	8B\	-fi-	.	8d\	-ca-	.	8r	.	8r	.	8r	.	8r	.	8r	.	8r	.	8r	.
*	*	*	*	*	*	*	*	*	*	*	*	*	*	*Xrep	*	*	*	*	*	*	*	*	*	*	*	*Xrep	*
=18	=18	=18	=18	=18	=18	=18	=18	=18	=18	=18	=18	=18	=18	=18	=18	=18	=18	=18	=18	=18	=18	=18	=18	=18	=18	=18	=18
!	!	!	!	!	!LO:LB:g=original	!	!	!LO:LB:g=original	!	!	!	!	!	!	!	!	!	!	!	!	!	!	!	!	!	!	!
4.C/	.	4.C/	-ca-	.	4.G\	-ca-	.	4.c\	-ca-	.	4.e\	-mus	.	16C/LL	.	4.e/	.	4.cc\	.	4.cc\	.	4.ee\	.	4.c/	.	4.g\	.
.	.	.	.	.	.	.	.	.	.	.	.	.	.	16C/	.	.	.	.	.	.	.	.	.	.	.	.	.
.	.	.	.	.	.	.	.	.	.	.	.	.	.	16C/	.	.	.	.	.	.	.	.	.	.	.	.	.
.	.	.	.	.	.	.	.	.	.	.	.	.	.	16C/	.	.	.	.	.	.	.	.	.	.	.	.	.
.	.	.	.	.	.	.	.	.	.	.	.	.	.	16C/	.	.	.	.	.	.	.	.	.	.	.	.	.
.	.	.	.	.	.	.	.	.	.	.	.	.	.	16C/JJ	.	.	.	.	.	.	.	.	.	.	.	.	.
4C/	.	4C/	-mus	.	4E\	-mus	.	4G\	-mus	.	4c\	te	.	4C/	.	4e/	.	4cc\	.	4cc\	.	4ee\	.	4c/	.	4g\	.
8r	.	8r	.	p	8r	.	p	8r	.	.	8r	.	p	8r	.	8r	.	8r	.	8r	.	8r	.	8r	.	8r	.
=19	=19	=19	=19	=19	=19	=19	=19	=19	=19	=19	=19	=19	=19	=19	=19	=19	=19	=19	=19	=19	=19	=19	=19	=19	=19	=19	=19
*	*	*	*	*	*2\right	*	*	*	*	*	*2\right	*	*	*	*	*	*	*	*	*	*	*	*	*	*	*	*
!LO:TX:a:i:t=4.	!	!	!	!	!	!	!	!	!	!	!	!	!	!LO:TX:a:i:t=49	!	!LO:TX:a:i:t=49	!	!LO:TX:a:i:t=49.	!	!LO:TX:a:i:t=4.	!	!LO:TX:a:i:t=4.	!	!LO:TX:a:i:t=4.	!	!LO:TX:a:i:t=4.	!
!LO:N:vis=00	!	!	!	!	!	!	!	!	!	!	!	!	!	!	!	!	!	!	!	!LO:N:vis=00	!	!LO:N:vis=00	!	!LO:N:vis=00	!	!LO:N:vis=00	!
0.r	.	(4.AA/	gra-	.	2.E\	gra-	.	[2.A\	gra-	p	2.c\	gra-	.	2.r	.	2.r	.	2.r	.	0.r	.	0.r	.	0.r	.	0.r	.
.	.	4.C/	.	.	.	.	.	.	.	.	.	.	.	.	.	.	.	.	.	.	.	.	.	.	.	.	.
=20	=20	=20	=20	=20	=20	=20	=20	=20	=20	=20	=20	=20	=20	=20	=20	=20	=20	=20	=20	=20	=20	=20	=20	=20	=20	=20	=20
.	.	4.E\	.	.	2.E\	-ti-	.	4.A\]	.	.	2.B\	-ti-	.	2.r	.	2.r	.	2.r	.	.	.	.	.	.	.	.	.
.	.	4.E\)	-ti-	.	.	.	.	4.G#X\	-ti-	.	.	.	.	.	.	.	.	.	.	.	.	.	.	.	.	.	.
=21	=21	=21	=21	=21	=21	=21	=21	=21	=21	=21	=21	=21	=21	=21	=21	=21	=21	=21	=21	=21	=21	=21	=21	=21	=21	=21	=21
.	.	4.F\	-as	.	4.F\	-as	.	4.A\	-as	.	4.A\	-as	.	2.r	.	2.r	.	2.r	.	.	.	.	.	.	.	.	.
.	.	8.F\	a-	.	8.F\	a-	.	8.A\	a-	.	8.A\	a-	.	.	.	.	.	.	.	.	.	.	.	.	.	.	.
.	.	16F\	-gi-	.	16F\	-gi-	.	16A\	-gi-	.	16A\	-gi-	.	.	.	.	.	.	.	.	.	.	.	.	.	.	.
.	.	8F\	-mus	.	8F\	-mus	.	8A\	-mus	.	8A\	-mus	.	.	.	.	.	.	.	.	.	.	.	.	.	.	.
=22	=22	=22	=22	=22	=22	=22	=22	=22	=22	=22	=22	=22	=22	=22	=22	=22	=22	=22	=22	=22	=22	=22	=22	=22	=22	=22	=22
.	.	4.D\	ti-	.	4.F\	ti-	.	4.F/	ti-	.	4.B\	ti-	.	2.r	.	2.r	.	2.r	.	.	.	.	.	.	.	.	.
.	.	4.C\	-bi	.	4.E\	-bi	.	4.G/	-bi	.	4.c\	-bi	.	.	.	.	.	.	.	.	.	.	.	.	.	.	.
=23	=23	=23	=23	=23	=23	=23	=23	=23	=23	=23	=23	=23	=23	=23	=23	=23	=23	=23	=23	=23	=23	=23	=23	=23	=23	=23	=23
!	!	!LO:LB:g=original	!	!	!	!	!	!	!	!	!LO:LB:g=original	!	!	!	!	!	!	!	!	!	!	!	!	!	!	!	!
4r	.	4BB/	pro-	.	4G\	(pro)-	.	4G/	(pro)-	.	4d\	pro-	.	2.r	.	2.r	.	2.r	.	4r	.	4r	.	4r	.	4r	.
8r	.	8BB/	-pter	.	8G\	-pter	.	8G/	-pter	.	8d\	-pter	.	.	.	.	.	.	.	8r	.	8r	.	8r	.	8r	.
4.BB/	.	4BB/	ma-	.	4G\	ma-	.	4G/	ma-	.	4d\	ma-	.	.	.	.	.	.	.	4.g/	.	4.dd\	.	[4.g\	.	[4.g\	.
.	.	8BB/	-gnam	.	8F\	-gnam	.	8G/	-gnam	.	8d\	-gnam	.	.	.	.	.	.	.	.	.	.	.	.	.	.	.
=24	=24	=24	=24	=24	=24	=24	=24	=24	=24	=24	=24	=24	=24	=24	=24	=24	=24	=24	=24	=24	=24	=24	=24	=24	=24	=24	=24
!	!	!LO:SIC:o=:v:niejednoznaczny zapis łuku	!	!	!	!	!	!	!	!	!LO:SIC:o=:v:niejednoznaczny zapis łuku	!	!	!	!	!	!	!	!	!	!	!	!	!	!	!LO:SIC:o:s=:v:niejednoznaczny zapis - ozdobnik?	!
4.C/	.	(>4.C/	glo-	.	[4.E\	glo-	.	4G/	glo-	.	(4.e\	glo-	.	2.r	.	2.r	.	2.r	.	2.e/	.	2.ee\	.	4g\]	.	4g\]	.
.	.	.	.	.	.	.	.	8G#X/	.	.	.	.	.	.	.	.	.	.	.	.	.	.	.	8g#X\	.	8g#X\	.
4C/	.	8.C/	.	.	8.E\]	.	.	8.A/	.	.	8.e\	.	.	.	.	.	.	.	.	.	.	.	.	4a\	.	4.a\	.
.	.	16C/)	-ri-	.	16A\	-ri-	.	16A/	-ri-	.	16e\)	-ri-	.	.	.	.	.	.	.	.	.	.	.	.	.	.	.
8C#X/	.	8C#X/	-am	.	8G\	-am	.	8A/	-am	.	8e\	-am	.	.	.	.	.	.	.	.	.	.	.	8g\	.	.	.
=25	=25	=25	=25	=25	=25	=25	=25	=25	=25	=25	=25	=25	=25	=25	=25	=25	=25	=25	=25	=25	=25	=25	=25	=25	=25	=25	=25
!	!	!	!	!	!LO:LB:g=original	!	!	!LO:LB:g=original	!	!	!	!	!	!	!	!	!	!	!	!	!	!	!	!	!	!	!
*2\right	*	*2\right	*	*	*	*	*	*	*	*	*	*	*	*	*	*	*	*	*	*	*	*	*	*	*	*	*
[2.D\	.	2.D\	tu-	.	(4.F#X\	tu-	.	4.A\	tu-	.	2.d\	tu-	.	2.r	.	2.r	.	2.r	.	4.cc\	.	2.dd\	.	4.f#X\	.	4.a\	.
.	.	.	.	.	4.G\)	.	.	4.B\	.	.	.	.	.	.	.	.	.	.	.	4.b\	.	.	.	4.g\	.	4.g\	.
=26	=26	=26	=26	=26	=26	=26	=26	=26	=26	=26	=26	=26	=26	=26	=26	=26	=26	=26	=26	=26	=26	=26	=26	=26	=26	=26	=26
!	!	!	!	!	!	!	!	!	!	!	!	!	!	!	!	!	!	!	!	!	!	!	!	!	!	!LO:LB:g=original	!
*4\right	*	*	*	*	*	*	*	*	*	*	*	*	*	*	*	*	*	*	*	*	*	*	*	*	*	*	*
!	!	!	!	!	!	!	!	!	!	!	!	!	!	!	!	!	!	!	!	!	!	!	!	!LO:N:vis=4.	!	!	!
4D\]	.	4D\	-am	.	4F#X\	-am	.	4A\	-am	.	4d\	-am	.	2.r	.	2.r	.	2.r	.	4dd\	.	4dd\	.	4f#X\	.	4a\	.
8r	.	8r	.	.	8r	.	.	8r	.	.	8r	.	.	.	.	.	.	.	.	8r	.	8r	.	8r	.	8r	.
!	!	!	!	!	!	!	!	!LO:TX:a:i:t=Solo	!	!	!	!	!	!	!	!	!	!	!	!	!	!	!	!	!	!	!
4r	.	4r	.	.	4r	.	.	8.d\	Do-	.	4r	.	.	.	.	.	.	.	.	4r	.	4r	.	4r	.	4r	.
.	.	.	.	.	.	.	.	16A\	-mi-	.	.	.	.	.	.	.	.	.	.	.	.	.	.	.	.	.	.
8r	.	8r	.	.	8r	.	.	8c\	-ne	.	8r	.	.	.	.	.	.	.	.	8r	.	8r	.	8r	.	8r	.
=27	=27	=27	=27	=27	=27	=27	=27	=27	=27	=27	=27	=27	=27	=27	=27	=27	=27	=27	=27	=27	=27	=27	=27	=27	=27	=27	=27
!	!	!	!	!	!	!	!	!	!	!	!	!	!	!	!	!	!	!	!	!LO:LB:g=original	!	!	!	!	!	!	!
!LO:TX:a:i:t=14	!	!LO:TX:a:i:t=3.	!	!	!LO:TX:a:i:t=5	!	!	!	!	!	!LO:TX:a:i:t=1	!	!	!	!	!	!	!	!	!LO:TX:a:i:t=14.	!	!LO:TX:a:i:t=14.	!	!LO:TX:a:i:t=14.	!	!LO:TX:a:i:t=14.	!
!	!	!LO:N:vis=0	!	!	!LO:N:vis=00	!	!	!	!	!	!	!	!	!	!	!	!	!	!	!	!	!	!	!	!	!	!
2.r	.	1.r	.	.	0.r	.	.	4B\	De-	.	2.r	.	.	2.r	.	2.r	.	2.r	.	2.r	.	2.r	.	2.r	.	2.r	.
.	.	.	.	.	.	.	.	8B\	-us	.	.	.	.	.	.	.	.	.	.	.	.	.	.	.	.	.	.
.	.	.	.	.	.	.	.	8.A\L	rex	.	.	.	.	.	.	.	.	.	.	.	.	.	.	.	.	.	.
.	.	.	.	.	.	.	.	16B\Jk	.	.	.	.	.	.	.	.	.	.	.	.	.	.	.	.	.	.	.
.	.	.	.	.	.	.	.	8A\	ce-	.	.	.	.	.	.	.	.	.	.	.	.	.	.	.	.	.	.
=28	=28	=28	=28	=28	=28	=28	=28	=28	=28	=28	=28	=28	=28	=28	=28	=28	=28	=28	=28	=28	=28	=28	=28	=28	=28	=28	=28
2.r	.	.	.	.	.	.	.	8.G/L	-le-	.	4r	.	.	2.r	.	2.r	.	2.r	.	2.r	.	2.r	.	2.r	.	2.r	.
.	.	.	.	.	.	.	.	16A/Jk	.	.	.	.	.	.	.	.	.	.	.	.	.	.	.	.	.	.	.
.	.	.	.	.	.	.	.	8G/	-stis	.	8r	.	.	.	.	.	.	.	.	.	.	.	.	.	.	.	.
.	.	.	.	.	.	.	.	4.F#X/	De-	.	8.d\	Do-	.	.	.	.	.	.	.	.	.	.	.	.	.	.	.
.	.	.	.	.	.	.	.	.	.	.	16A\	-mi-	.	.	.	.	.	.	.	.	.	.	.	.	.	.	.
.	.	.	.	.	.	.	.	.	.	.	8c\	-ne	.	.	.	.	.	.	.	.	.	.	.	.	.	.	.
=29	=29	=29	=29	=29	=29	=29	=29	=29	=29	=29	=29	=29	=29	=29	=29	=29	=29	=29	=29	=29	=29	=29	=29	=29	=29	=29	=29
2.r	.	2.r	.	.	.	.	.	[4G/	-us	.	4B\	De-	.	2.r	.	2.r	.	2.r	.	2.r	.	2.r	.	2.r	.	2.r	.
.	.	.	.	.	.	.	.	8G/]	.	.	8B\	-us	.	.	.	.	.	.	.	.	.	.	.	.	.	.	.
.	.	.	.	.	.	.	.	4G/	rex	.	8.A\L	rex	.	.	.	.	.	.	.	.	.	.	.	.	.	.	.
.	.	.	.	.	.	.	.	.	.	.	16B\Jk	.	.	.	.	.	.	.	.	.	.	.	.	.	.	.	.
.	.	.	.	.	.	.	.	8F#X/	ce-	.	8A\	ce-	.	.	.	.	.	.	.	.	.	.	.	.	.	.	.
=30	=30	=30	=30	=30	=30	=30	=30	=30	=30	=30	=30	=30	=30	=30	=30	=30	=30	=30	=30	=30	=30	=30	=30	=30	=30	=30	=30
!	!	!LO:PB:g=original	!	!	!	!	!	!LO:PB:g=original	!	!	!LO:PB:g=original	!	!	!	!	!	!	!	!	!	!	!	!	!	!	!	!
2.r	.	4r	.	.	.	.	.	8.B\L	-les-	.	8.G/	-les-	.	2.r	.	2.r	.	2.r	.	2.r	.	2.r	.	2.r	.	2.r	.
.	.	.	.	.	.	.	.	16c\Jk	.	.	16A/	-tis	.	.	.	.	.	.	.	.	.	.	.	.	.	.	.
.	.	8r	.	.	.	.	.	8B\	-tis	.	8G/	.	.	.	.	.	.	.	.	.	.	.	.	.	.	.	.
.	.	8.D/	Do-	.	.	.	.	4.A\	De-	.	4.F#X/	De-	.	.	.	.	.	.	.	.	.	.	.	.	.	.	.
.	.	16AA/	-mi-	.	.	.	.	.	.	.	.	.	.	.	.	.	.	.	.	.	.	.	.	.	.	.	.
.	.	8C/	-ne	.	.	.	.	.	.	.	.	.	.	.	.	.	.	.	.	.	.	.	.	.	.	.	.
=31	=31	=31	=31	=31	=31	=31	=31	=31	=31	=31	=31	=31	=31	=31	=31	=31	=31	=31	=31	=31	=31	=31	=31	=31	=31	=31	=31
2.r	.	4BB/	De-	.	2.r	.	.	4G/	-us	.	4.G/	-us	.	2.r	.	2.r	.	2.r	.	2.r	.	2.r	.	2.r	.	2.r	.
.	.	8BB/	-us	.	.	.	.	8d\	pa-	.	.	.	.	.	.	.	.	.	.	.	.	.	.	.	.	.	.
.	.	4AA/	rex	.	.	.	.	8.c\L	.	.	4G/	Pa-	.	.	.	.	.	.	.	.	.	.	.	.	.	.	.
.	.	.	.	.	.	.	.	16d\Jk	.	.	.	.	.	.	.	.	.	.	.	.	.	.	.	.	.	.	.
.	.	8D/	ce-	.	.	.	.	8c\	.	.	8F#X/	.	.	.	.	.	.	.	.	.	.	.	.	.	.	.	.
=32	=32	=32	=32	=32	=32	=32	=32	=32	=32	=32	=32	=32	=32	=32	=32	=32	=32	=32	=32	=32	=32	=32	=32	=32	=32	=32	=32
2.r	.	4GG/	-les-	.	8.G\	Do-	.	4B\	-ter	.	4.d\	-ter	.	2.r	.	2.r	.	2.r	.	2.r	.	2.r	.	2.r	.	2.r	.
.	.	.	.	.	16D\	-mi-	.	.	.	.	.	.	.	.	.	.	.	.	.	.	.	.	.	.	.	.	.
.	.	8BB/	-tis	.	8Fn\	-ne	.	8G\	om-	.	.	.	.	.	.	.	.	.	.	.	.	.	.	.	.	.	.
.	.	8.C/L	pa-	.	4E\	De-	.	4G\	-ni-	.	4c\	om-	.	.	.	.	.	.	.	.	.	.	.	.	.	.	.
.	.	16BB/K	.	.	.	.	.	.	.	.	.	.	.	.	.	.	.	.	.	.	.	.	.	.	.	.	.
.	.	8AA/J	.	.	8A\	-us	.	8c\	-po-	.	[8e\	-ni-	.	.	.	.	.	.	.	.	.	.	.	.	.	.	.
=33	=33	=33	=33	=33	=33	=33	=33	=33	=33	=33	=33	=33	=33	=33	=33	=33	=33	=33	=33	=33	=33	=33	=33	=33	=33	=33	=33
2.r	.	4GG#X/	-ter	.	4B\	om-	.	4d\	-tens	.	4.e\]	.	.	2.r	.	2.r	.	2.r	.	2.r	.	2.r	.	2.r	.	2.r	.
.	.	8AA/	om-	.	8A\	-ni-	.	8c\	o-	.	.	.	.	.	.	.	.	.	.	.	.	.	.	.	.	.	.
.	.	4Fn\	-ni-	.	4A\	.	.	8.c\L	-mni-	.	4e\	-po-	.	.	.	.	.	.	.	.	.	.	.	.	.	.	.
.	.	.	.	.	.	.	.	16B\Jk	.	.	.	.	.	.	.	.	.	.	.	.	.	.	.	.	.	.	.
.	.	8F\	-po-	.	8A\	-po-	.	8A\	-po-	.	8d#X\	.	.	.	.	.	.	.	.	.	.	.	.	.	.	.	.
=34	=34	=34	=34	=34	=34	=34	=34	=34	=34	=34	=34	=34	=34	=34	=34	=34	=34	=34	=34	=34	=34	=34	=34	=34	=34	=34	=34
2.r	.	4E\	-tens	.	4G#X\	-tens	.	4B\	-tens	.	4e\	-tens	.	2.r	.	2.r	.	2.r	.	2.r	.	2.r	.	2.r	.	2.r	.
.	.	8r	.	.	8r	.	.	8r	.	.	8r	.	.	.	.	.	.	.	.	.	.	.	.	.	.	.	.
.	.	4r	.	.	4r	.	.	4r	.	.	8.e\	Do-	.	.	.	.	.	.	.	.	.	.	.	.	.	.	.
.	.	.	.	.	.	.	.	.	.	.	16B\	-mi-	.	.	.	.	.	.	.	.	.	.	.	.	.	.	.
.	.	8r	.	.	8r	.	.	8r	.	.	8d\	-ne	.	.	.	.	.	.	.	.	.	.	.	.	.	.	.
=35	=35	=35	=35	=35	=35	=35	=35	=35	=35	=35	=35	=35	=35	=35	=35	=35	=35	=35	=35	=35	=35	=35	=35	=35	=35	=35	=35
!	!	!LO:TX:a:i:t=3.	!	!	!LO:TX:a:i:t=5	!	!	!LO:TX:a:i:t=1	!	!	!	!	!	!	!	!	!	!	!	!	!	!	!	!	!	!	!
!	!	!LO:N:vis=0	!	!	!LO:N:vis=00	!	!	!	!	!	!	!	!	!	!	!	!	!	!	!	!	!	!	!	!	!	!
2.r	.	1.r	.	.	0.r	.	.	2.r	.	.	4c\	De-	.	2.r	.	2.r	.	2.r	.	2.r	.	2.r	.	2.r	.	2.r	.
.	.	.	.	.	.	.	.	.	.	.	8c\	-us	.	.	.	.	.	.	.	.	.	.	.	.	.	.	.
.	.	.	.	.	.	.	.	.	.	.	8.B\L	fi-	.	.	.	.	.	.	.	.	.	.	.	.	.	.	.
.	.	.	.	.	.	.	.	.	.	.	16c\Jk	-li-	.	.	.	.	.	.	.	.	.	.	.	.	.	.	.
.	.	.	.	.	.	.	.	.	.	.	8B\	-us	.	.	.	.	.	.	.	.	.	.	.	.	.	.	.
=36	=36	=36	=36	=36	=36	=36	=36	=36	=36	=36	=36	=36	=36	=36	=36	=36	=36	=36	=36	=36	=36	=36	=36	=36	=36	=36	=36
!	!	!	!	!	!	!	!	!	!	!	!LO:LB:g=original	!	!	!	!	!	!	!	!	!	!	!	!	!	!	!	!
2.r	.	.	.	.	.	.	.	4r	.	.	8.A\L	u-	.	2.r	.	2.r	.	2.r	.	2.r	.	2.r	.	2.r	.	2.r	.
.	.	.	.	.	.	.	.	.	.	.	16B\Jk	.	.	.	.	.	.	.	.	.	.	.	.	.	.	.	.
.	.	.	.	.	.	.	.	8r	.	.	8A\	-ni	.	.	.	.	.	.	.	.	.	.	.	.	.	.	.
.	.	.	.	.	.	.	.	8.e\	Do-	.	4G#X/	ge-	.	.	.	.	.	.	.	.	.	.	.	.	.	.	.
.	.	.	.	.	.	.	.	16B\	-mi-	.	.	.	.	.	.	.	.	.	.	.	.	.	.	.	.	.	.
.	.	.	.	.	.	.	.	8d\	-ne	.	8G#/	-ni-	.	.	.	.	.	.	.	.	.	.	.	.	.	.	.
=37	=37	=37	=37	=37	=37	=37	=37	=37	=37	=37	=37	=37	=37	=37	=37	=37	=37	=37	=37	=37	=37	=37	=37	=37	=37	=37	=37
!	!	!	!	!	!	!	!	!LO:LB:g=original	!	!	!	!	!	!	!	!	!	!	!	!	!	!	!	!	!	!	!
2.r	.	2.r	.	.	.	.	.	4c\	De-	.	4.A\	-te	.	2.r	.	2.r	.	2.r	.	2.r	.	2.r	.	2.r	.	2.r	.
.	.	.	.	.	.	.	.	8c\	-us	.	.	.	.	.	.	.	.	.	.	.	.	.	.	.	.	.	.
.	.	.	.	.	.	.	.	8.B'\L	fi-	.	4A\	u-	.	.	.	.	.	.	.	.	.	.	.	.	.	.	.
.	.	.	.	.	.	.	.	16c'\Jk	-li-	.	.	.	.	.	.	.	.	.	.	.	.	.	.	.	.	.	.
.	.	.	.	.	.	.	.	8B'\	-i	.	8G#X\	-ni	.	.	.	.	.	.	.	.	.	.	.	.	.	.	.
=38	=38	=38	=38	=38	=38	=38	=38	=38	=38	=38	=38	=38	=38	=38	=38	=38	=38	=38	=38	=38	=38	=38	=38	=38	=38	=38	=38
!	!	!LO:LB:g=original	!	!	!	!	!	!	!	!	!	!	!	!	!	!	!	!	!	!	!	!	!	!	!	!	!
2.r	.	4r	.	.	.	.	.	8.A\L	u-	.	8.c\L	ge-	.	2.r	.	2.r	.	2.r	.	2.r	.	2.r	.	2.r	.	2.r	.
.	.	.	.	.	.	.	.	16B\Jk	.	.	16d\Jk	.	.	.	.	.	.	.	.	.	.	.	.	.	.	.	.
.	.	8r	.	.	.	.	.	8A\	-ni	.	8c\	-ni-	.	.	.	.	.	.	.	.	.	.	.	.	.	.	.
.	.	8.E\	Do-	.	.	.	.	4G#X/	ge-	.	4.B\	-te	.	.	.	.	.	.	.	.	.	.	.	.	.	.	.
.	.	16BB\	-mi-	.	.	.	.	.	.	.	.	.	.	.	.	.	.	.	.	.	.	.	.	.	.	.	.
.	.	8D\	-ne	.	.	.	.	8G#/	-ni-	.	.	.	.	.	.	.	.	.	.	.	.	.	.	.	.	.	.
=39	=39	=39	=39	=39	=39	=39	=39	=39	=39	=39	=39	=39	=39	=39	=39	=39	=39	=39	=39	=39	=39	=39	=39	=39	=39	=39	=39
2.r	.	4C/	De-	.	2.r	.	.	4.A\	-te	.	4A\	Je-	.	2.r	.	2.r	.	2.r	.	2.r	.	2.r	.	2.r	.	2.r	.
.	.	8C/	-us	.	.	.	.	.	.	.	8e\	-su	.	.	.	.	.	.	.	.	.	.	.	.	.	.	.
.	.	4BB/	Je-	.	.	.	.	4A\	Je-	.	8.d\L	Chri-	.	.	.	.	.	.	.	.	.	.	.	.	.	.	.
.	.	.	.	.	.	.	.	.	.	.	16e\Jk	.	.	.	.	.	.	.	.	.	.	.	.	.	.	.	.
.	.	8E\	-su	.	.	.	.	8G#X\	-su	.	8d\	-ste	.	.	.	.	.	.	.	.	.	.	.	.	.	.	.
=40	=40	=40	=40	=40	=40	=40	=40	=40	=40	=40	=40	=40	=40	=40	=40	=40	=40	=40	=40	=40	=40	=40	=40	=40	=40	=40	=40
!	!	!	!	!	!LO:PB:g=original	!	!	!	!	!	!	!	!	!	!	!	!	!	!	!	!	!	!	!	!	!	!
*	*	*	*	*	*	*	*	*2\right	*	*	*	*	*	*	*	*	*	*	*	*	*	*	*	*	*	*	*
2.r	.	4.AA/	Chri-	.	8.A\	Do-	.	2.A\	Chri-	.	4c\	Do-	.	2.r	.	2.r	.	2.r	.	2.r	.	2.r	.	2.r	.	2.r	.
.	.	.	.	.	16E\	-mi-	.	.	.	.	.	.	.	.	.	.	.	.	.	.	.	.	.	.	.	.	.
.	.	.	.	.	8G\	-ne	.	.	.	.	8c#X\	.	.	.	.	.	.	.	.	.	.	.	.	.	.	.	.
.	.	4.D\	-ste	.	4F\	Je-	.	.	.	.	8.d\	-mi-	.	.	.	.	.	.	.	.	.	.	.	.	.	.	.
.	.	.	.	.	.	.	.	.	.	.	16A\	.	.	.	.	.	.	.	.	.	.	.	.	.	.	.	.
!	!	!	!	!	!	!	!	!	!	!	!LO:SIC:o:s=:v:8cn	!	!	!	!	!	!	!	!	!	!	!	!	!	!	!	!
.	.	.	.	.	8F#X\	-su	.	.	.	.	8c#\	-ne	.	.	.	.	.	.	.	.	.	.	.	.	.	.	.
=41	=41	=41	=41	=41	=41	=41	=41	=41	=41	=41	=41	=41	=41	=41	=41	=41	=41	=41	=41	=41	=41	=41	=41	=41	=41	=41	=41
!	!	!	!	!	!	!	!	!	!	!	!LO:LB:g=original	!	!	!	!	!	!	!	!	!	!	!	!	!	!	!	!
8.G\L	.	8.G\	Do-	.	2.G\	Chri-	.	4G\	-ste	.	4B\	De-	.	2.r	.	2.r	.	2.r	.	8r	.	8r	.	8r	.	8r	.
.	.	.	.	.	.	.	.	.	.	.	.	.	.	.	.	.	.	.	.	8r	.	8r	.	8r	.	8r	.
*16\right	*	*	*	*	*	*	*	*	*	*	*	*	*	*	*	*	*	*	*	*	*	*	*	*	*	*	*
16D\K	.	16D\	-mi-	.	.	.	.	.	.	.	.	.	.	.	.	.	.	.	.	.	.	.	.	.	.	.	.
8F\J	.	8Fn\	-ne	.	.	.	.	8B\	Do-	.	8d\	.	.	.	.	.	.	.	.	8b\	.	8dd\	.	8g\	.	8g\	.
4.E\	.	4E\	De-	.	.	.	.	8.c\	-mi-	.	4.c\	-us	.	.	.	.	.	.	.	4.cc\	.	4.cc\	.	4.g\	.	4.g\	.
.	.	.	.	.	.	.	.	16G\	.	.	.	.	.	.	.	.	.	.	.	.	.	.	.	.	.	.	.
.	.	8E\	-us	.	.	.	.	8B-X\	-ne	.	.	.	.	.	.	.	.	.	.	.	.	.	.	.	.	.	.
=42	=42	=42	=42	=42	=42	=42	=42	=42	=42	=42	=42	=42	=42	=42	=42	=42	=42	=42	=42	=42	=42	=42	=42	=42	=42	=42	=42
!	!	!	!	!	!	!	!	!	!	!	!	!	!	!	!	!	!	!	!	!	!	!LO:LB:g=original	!	!LO:LB:g=original	!	!	!
4.F\	.	4.F\	Ag-	.	4.Fn\	-ste	.	4A\	De-	.	(8.c\	ag-	.	2.r	.	2.r	.	2.r	.	4.cc\	.	4.cc\	.	4.f\	.	4.a\	.
.	.	.	.	.	.	.	.	.	.	.	16F\)	.	.	.	.	.	.	.	.	.	.	.	.	.	.	.	.
.	.	.	.	.	.	.	.	8c\	-us	.	8A\	-nus	.	.	.	.	.	.	.	.	.	.	.	.	.	.	.
4.E\	.	4.E\	-nus	.	4.G\	a-	.	8.c\	Do-	.	4.c\	De-	.	.	.	.	.	.	.	4.cc\	.	4.cc\	.	4.c/	.	4.g\	.
.	.	.	.	.	.	.	.	16G\	-mi-	.	.	.	.	.	.	.	.	.	.	.	.	.	.	.	.	.	.
.	.	.	.	.	.	.	.	8B-X\	-ne	.	.	.	.	.	.	.	.	.	.	.	.	.	.	.	.	.	.
=43	=43	=43	=43	=43	=43	=43	=43	=43	=43	=43	=43	=43	=43	=43	=43	=43	=43	=43	=43	=43	=43	=43	=43	=43	=43	=43	=43
!LO:LB:g=original	!	!	!	!	!	!	!	!LO:LB:g=original	!	!	!	!	!	!	!	!	!	!	!	!	!	!	!	!	!	!	!
4.F\	.	4.F\	De-	.	4.F\	-gnus	.	4A\	a-	.	(8.c\	-i	.	2.r	.	2.r	.	2.r	.	4.cc\	.	4.cc\	.	4.f\	.	4.a\	.
.	.	.	.	.	.	.	.	.	.	.	16F\)	.	.	.	.	.	.	.	.	.	.	.	.	.	.	.	.
.	.	.	.	.	.	.	.	8c\	-gnus	.	8A\	.	.	.	.	.	.	.	.	.	.	.	.	.	.	.	.
4E\	.	4E\	.	.	(4G\	De-	.	4B-X\	De-	.	4.c\	De-	.	.	.	.	.	.	.	4.cc\	.	4.cc\	.	4c/	.	4g\	.
8F\	.	8F\	.	.	8F\)	.	.	8A\	-i	.	.	.	.	.	.	.	.	.	.	.	.	.	.	8f\	.	8a\	.
=44	=44	=44	=44	=44	=44	=44	=44	=44	=44	=44	=44	=44	=44	=44	=44	=44	=44	=44	=44	=44	=44	=44	=44	=44	=44	=44	=44
!	!	!LO:LB:g=original	!	!	!	!	!	!	!	!	!	!	!	!	!	!	!	!	!	!	!	!	!	!	!	!	!
4C/	.	4C/	-i	.	4E\	-i	.	4G/	.	.	4c\	-i	.	2.r	.	2.r	.	2.r	.	4cc\	.	4cc\	.	4e\	.	4g\	.
8r	.	8r	.	.	8r	.	.	8r	.	.	8r	.	.	.	.	.	.	.	.	8r	.	8r	.	8r	.	8r	.
4r	.	4.C/	qui	.	4.C/	qui	.	4.C/	qui	.	4.C/	qui	.	.	.	.	.	.	.	4r	.	4r	.	4r	.	4r	.
8r	.	.	.	.	.	.	.	.	.	.	.	.	.	.	.	.	.	.	.	8r	.	8r	.	8r	.	8r	.
=45	=45	=45	=45	=45	=45	=45	=45	=45	=45	=45	=45	=45	=45	=45	=45	=45	=45	=45	=45	=45	=45	=45	=45	=45	=45	=45	=45
!LO:TX:a:i:t=9.	!	!	!	!	!	!	!	!	!	!	!	!	!	!	!	!	!	!	!	!LO:TX:a:i:t=10.	!	!LO:TX:a:i:t=10.	!	!LO:TX:a:i:t=7.	!	!LO:TX:a:i:t=7.	!
!LO:N:vis=00	!	!	!	!	!	!	!	!	!	!	!	!	!	!	!	!	!	!	!	!	!	!	!	!LO:N:vis=00	!	!LO:N:vis=00	!
0.r	.	4.D\	tol-	.	4.D\	tol-	.	4.D/	tol-	.	4.D/	tol-	.	2.r	.	2.r	.	2.r	.	2.r	.	2.r	.	0.r	.	0.r	.
.	.	4.E\	.	.	4.E\	.	.	4.E/	.	.	4.E/	-lis	.	.	.	.	.	.	.	.	.	.	.	.	.	.	.
=46	=46	=46	=46	=46	=46	=46	=46	=46	=46	=46	=46	=46	=46	=46	=46	=46	=46	=46	=46	=46	=46	=46	=46	=46	=46	=46	=46
.	.	4.F\	-lis	.	4.F\	-lis	.	4.F/	-lis	.	(>4.F/	pec-	.	2.r	.	2.r	.	2.r	.	2.r	.	2.r	.	.	.	.	.
.	.	4.F\	pec-	.	4.F\	pec-	.	4.F/	pec-	.	4.F/)	.	.	.	.	.	.	.	.	.	.	.	.	.	.	.	.
=47	=47	=47	=47	=47	=47	=47	=47	=47	=47	=47	=47	=47	=47	=47	=47	=47	=47	=47	=47	=47	=47	=47	=47	=47	=47	=47	=47
.	.	4.G\	-ca-	.	4.G\	-ca-	.	4.G/	-ca-	.	4.G/	-ca-	.	2.r	.	2.r	.	2.r	.	2.r	.	2.r	.	.	.	.	.
.	.	4.F\	-ta	.	4.F\	-ta	.	4.F/	-ta	.	4.F/	-ta	.	.	.	.	.	.	.	.	.	.	.	.	.	.	.
=48	=48	=48	=48	=48	=48	=48	=48	=48	=48	=48	=48	=48	=48	=48	=48	=48	=48	=48	=48	=48	=48	=48	=48	=48	=48	=48	=48
!	!	!	!	!	!LO:LB:g=original	!	!	!	!	!	!LO:LB:g=original	!	!	!	!	!	!	!	!	!	!	!	!	!	!	!	!
.	.	4.G\	mun-	.	4.G\	mun-	.	4.G/	mun-	.	(>4.G/	mun-	.	2.r	.	2.r	.	2.r	.	2.r	.	2.r	.	.	.	.	.
.	.	4.A\	.	.	4.A\	.	.	4.A/	.	.	4.A/)	.	.	.	.	.	.	.	.	.	.	.	.	.	.	.	.
=49	=49	=49	=49	=49	=49	=49	=49	=49	=49	=49	=49	=49	=49	=49	=49	=49	=49	=49	=49	=49	=49	=49	=49	=49	=49	=49	=49
!LO:N:vis=00	!	!	!	!	!	!	!	!	!	!	!	!	!	!	!	!	!	!	!	!	!	!	!	!LO:N:vis=0	!	!LO:N:vis=0	!
0.r	.	4F\	-di	.	4F\	-di	.	4F/	-di	.	4F/	-di	.	2.r	.	2.r	.	2.r	.	2.r	.	2.r	.	1.r	.	1.r	.
.	.	8r	.	.	8r	.	.	8r	.	.	8r	.	.	.	.	.	.	.	.	.	.	.	.	.	.	.	.
.	.	8r	.	.	8r	.	.	8r	.	.	4r	.	.	.	.	.	.	.	.	.	.	.	.	.	.	.	.
.	.	8D\	mi-	.	8F\	mi-	.	8B-X\	mi-	.	.	.	.	.	.	.	.	.	.	.	.	.	.	.	.	.	.
.	.	8D\	-se-	.	8F\	-se-	.	8B-\	-se-	.	8r	.	.	.	.	.	.	.	.	.	.	.	.	.	.	.	.
=50	=50	=50	=50	=50	=50	=50	=50	=50	=50	=50	=50	=50	=50	=50	=50	=50	=50	=50	=50	=50	=50	=50	=50	=50	=50	=50	=50
!	!	!	!	!	!	!	!	!LO:SIC:o:s=:v:8B-	!	!	!	!	!	!	!	!	!	!	!	!	!	!	!	!	!	!	!
.	.	4C#X/	-re-	.	4G\	-re-	.	8B\L	-re-	.	8r	.	.	2.r	.	2.r	.	2.r	.	2.r	.	2.r	.	.	.	.	.
.	.	.	.	.	.	.	.	8A\J	.	.	8e\	mi-	.	.	.	.	.	.	.	.	.	.	.	.	.	.	.
.	.	8C#/	-re	.	8G\	-re	.	8A\	-re	.	8e\	-se-	.	.	.	.	.	.	.	.	.	.	.	.	.	.	.
.	.	4.D\	no-	.	4.F\	no-	.	4.A\	no-	.	8e\L	-re-	.	.	.	.	.	.	.	.	.	.	.	.	.	.	.
.	.	.	.	.	.	.	.	.	.	.	8d\J	.	.	.	.	.	.	.	.	.	.	.	.	.	.	.	.
.	.	.	.	.	.	.	.	.	.	.	8d\	-re	.	.	.	.	.	.	.	.	.	.	.	.	.	.	.
=51	=51	=51	=51	=51	=51	=51	=51	=51	=51	=51	=51	=51	=51	=51	=51	=51	=51	=51	=51	=51	=51	=51	=51	=51	=51	=51	=51
!	!	!	!	!	!	!	!	!LO:LB:g=original	!	!	!	!	!	!	!	!	!	!	!	!	!	!	!	!	!	!	!
.	.	4.BB-X/	.	.	4.F\	.	.	(4.B-X\	.	.	(4.d\	no-	.	2.r	.	2.r	.	2.r	.	2.r	.	2.r	.	2.r	.	2.r	.
.	.	4.C/	.	.	8F\L	.	.	4A\	.	.	4c\	.	.	.	.	.	.	.	.	.	.	.	.	.	.	.	.
.	.	.	.	.	8C\	.	.	.	.	.	.	.	.	.	.	.	.	.	.	.	.	.	.	.	.	.	.
.	.	.	.	.	8E\J	.	.	8G\)	.	.	8B-X\)	.	.	.	.	.	.	.	.	.	.	.	.	.	.	.	.
=52	=52	=52	=52	=52	=52	=52	=52	=52	=52	=52	=52	=52	=52	=52	=52	=52	=52	=52	=52	=52	=52	=52	=52	=52	=52	=52	=52
!	!	!LO:LB:g=original	!	!	!	!	!	!	!	!	!	!	!	!	!	!	!	!	!	!	!	!	!	!	!	!	!
.	.	4F\	-bis	.	4F\	-bis	.	4F/	-bis	.	4A\	-bis	.	2.r	.	2.r	.	2.r	.	2.r	.	2.r	.	8r	.	8r	.
.	.	.	.	.	.	.	.	.	.	.	.	.	.	.	.	.	.	.	.	.	.	.	.	8f\L	.	8f\L	.
.	.	8r	.	.	8r	.	.	8r	.	.	8r	.	.	.	.	.	.	.	.	.	.	.	.	8f\J	.	8f\J	.
*	*	*	*	*	*	*	*	*	*	*	*	*	*	*	*	*	*	*	*	*	*	*	*	*tremolo	*	*	*
.	.	4BB-X/	sus-	.	4F\	su-	.	4B-X\	su-	.	4d\	su-	.	.	.	.	.	.	.	.	.	.	.	8f\L	.	4.f\	.
.	.	.	.	.	.	.	.	.	.	.	.	.	.	.	.	.	.	.	.	.	.	.	.	8f/	.	.	.
.	.	8D/	-ci-	.	8F\	-sci-	.	8B-\	-sci-	.	8d\	-sci-	.	.	.	.	.	.	.	.	.	.	.	8f/J	.	.	.
=53	=53	=53	=53	=53	=53	=53	=53	=53	=53	=53	=53	=53	=53	=53	=53	=53	=53	=53	=53	=53	=53	=53	=53	=53	=53	=53	=53
*	*	*	*	*	*	*	*	*	*	*	*	*	*	*	*	*	*	*	*	*	*	*	*	*	*	*tremolo	*
2.r	.	4F\	-pe	.	4F\	-pe	.	4A\	-pe	.	4c\	-pe	.	2.r	.	2.r	.	2.r	.	2.r	.	2.r	.	8f\L	.	8f\L	.
.	.	.	.	.	.	.	.	.	.	.	.	.	.	.	.	.	.	.	.	.	.	.	.	8f\	.	8f\	.
.	.	8r	.	.	8r	.	.	8r	.	.	8r	.	.	.	.	.	.	.	.	.	.	.	.	8f\J	.	8f\J	.
*	*	*	*	*	*	*ij	*	*	*ij	*	*	*	*	*	*	*	*	*	*	*	*	*	*	*Xtremolo	*	*Xtremolo	*
.	.	4BB-X/	sus-	.	4F\	su-	.	4B-X\	su-	.	4d\	su-	.	.	.	.	.	.	.	.	.	.	.	4.f\	.	4.f\	.
.	.	8D/	-ci-	.	8F\	-sci-	.	8B-\	-sci-	.	8d\	-sci-	.	.	.	.	.	.	.	.	.	.	.	.	.	.	.
=54	=54	=54	=54	=54	=54	=54	=54	=54	=54	=54	=54	=54	=54	=54	=54	=54	=54	=54	=54	=54	=54	=54	=54	=54	=54	=54	=54
!	!	!	!	!	!	!	!	!	!	!	!LO:LB:g=original	!	!	!	!	!	!	!	!	!	!	!	!	!	!	!	!
8r	.	8F\	-pe	.	8F\	-pe	.	8A\	-pe	.	8c\	-pe	.	2.r	.	2.r	.	2.r	.	2.r	.	2.r	.	8f\L	.	8f\L	.
*	*	*	*	*	*	*Xij	*	*	*Xij	*	*	*	*	*	*	*	*	*	*	*	*	*	*	*	*	*	*
8F\L	.	8F\	de-	.	8F\	de-	.	8F\	de-	.	8A\	de-	.	.	.	.	.	.	.	.	.	.	.	8f\	.	8a\	.
8F\J	.	8F\	-pre-	.	8F\	-pre-	.	8G\	-pre-	.	8B-X\	-pre-	.	.	.	.	.	.	.	.	.	.	.	8g\J	.	8b-\J	.
!	!	!	!	!	!LO:LB:g=original	!	!	!	!	!	!	!	!	!	!	!	!	!	!	!	!	!	!	!	!	!	!
8F\L	.	8F\L	-ca-	.	8F\L	-ca-	.	4A\	-ca-	.	4c\	-ca-	.	.	.	.	.	.	.	.	.	.	.	[4.a\	.	[4.cc\	.
8A\	.	8A\J	.	.	8A\J	.	.	.	.	.	.	.	.	.	.	.	.	.	.	.	.	.	.	.	.	.	.
8F\J	.	8F\	-ti-	.	8F\	-ti-	.	8A\	-ti-	.	8c\	-ti-	.	.	.	.	.	.	.	.	.	.	.	.	.	.	.
=55	=55	=55	=55	=55	=55	=55	=55	=55	=55	=55	=55	=55	=55	=55	=55	=55	=55	=55	=55	=55	=55	=55	=55	=55	=55	=55	=55
!	!	!	!	!	!	!	!	!	!	!	!	!	!	!	!	!	!	!	!	!	!	!	!	!	!	!LO:LB:g=original	!
2.C/	.	4C/	-o-	.	4C/	-o-	.	8A/L	-o-	.	8c\L	-o-	.	2.r	.	2.r	.	2.r	.	8r	.	8r	.	8a\L]	.	8cc\L]	.
.	.	.	.	.	.	.	.	8G/J	.	.	8B-X\J	.	.	.	.	.	.	.	.	8cc\L	.	8cc\L	.	8g\	.	8b-\	.
.	.	8C/	-nem	.	8C/	-nem	.	8E/	-nem	.	8A\	-nem	.	.	.	.	.	.	.	8cc\J	.	8cc\J	.	8f\J	.	8a\J	.
.	.	4.C/	no-	.	4.C/	no-	.	4E/	no-	.	(4G/	no-	.	.	.	.	.	.	.	4.cc\	.	4.cc\	.	4e\	.	4g\	.
.	.	.	.	.	.	.	.	8F/	.	.	8A/)	.	.	.	.	.	.	.	.	.	.	.	.	8f\	.	8a\	.
=56	=56	=56	=56	=56	=56	=56	=56	=56	=56	=56	=56	=56	=56	=56	=56	=56	=56	=56	=56	=56	=56	=56	=56	=56	=56	=56	=56
4C/	.	4C/	-stram	.	4C/	-stram	.	4E/	-stram	.	4G/	-stram	.	2.r	.	2.r	.	2.r	.	4cc\	.	4cc\	.	4c/	.	4g\	.
8r	.	8r	.	.	8r	.	.	8r	.	.	8r	.	.	.	.	.	.	.	.	8r	.	8r	.	8r	.	8r	.
4r	.	4.C/	qui	.	4.C/	qui	.	4.C/	qui	.	4.C/	qui	.	.	.	.	.	.	.	4r	.	4r	.	4r	.	4r	.
!	!	!	!	!	!	!	!	!	!	!	!	!	!	!	!	!	!	!	!	!	!	!LO:TX:a:i:t=vi=	!	!	!	!	!
8r	.	.	.	.	.	.	.	.	.	.	.	.	.	.	.	.	.	.	.	8r	.	8r	.	8r	.	8r	.
=57	=57	=57	=57	=57	=57	=57	=57	=57	=57	=57	=57	=57	=57	=57	=57	=57	=57	=57	=57	=57	=57	=57	=57	=57	=57	=57	=57
!	!	!	!	!	!	!	!	!LO:LB:g=original	!	!	!	!	!	!	!	!	!	!	!	!	!	!	!	!LO:LB:g=original	!	!	!
!	!	!	!	!	!	!	!	!	!	!	!	!	!	!	!	!	!	!	!	!	!	!LO:TX:b:i:t=10	!	!	!	!	!
!LO:TX:a:i:t=10	!	!	!	!	!	!	!	!	!	!	!	!	!	!	!	!	!	!	!	!LO:TX:a:i:t=10	!	!LO:TX:a:i:t=de	!	!LO:TX:a:i:t=10	!	!LO:TX:a:i:t=10	!
2.r	.	4.D\	se-	.	4.D\	se-	.	4.D/	se-	.	4.D/	se-	.	2.r	.	2.r	.	2.r	.	2.r	.	2.r	.	2.r	.	2.r	.
.	.	4.E\	.	.	4.E\	.	.	4.E/	.	.	4.E/	.	.	.	.	.	.	.	.	.	.	.	.	.	.	.	.
=58	=58	=58	=58	=58	=58	=58	=58	=58	=58	=58	=58	=58	=58	=58	=58	=58	=58	=58	=58	=58	=58	=58	=58	=58	=58	=58	=58
2.r	.	4.F\	-des	.	4.F\	-des	.	4.F/	-des	.	4.F/	-des	.	2.r	.	2.r	.	2.r	.	2.r	.	2.r	.	2.r	.	2.r	.
.	.	4.F\	ad	.	4.F\	ad	.	4.F/	ad	.	4.F/	ad	.	.	.	.	.	.	.	.	.	.	.	.	.	.	.
=59	=59	=59	=59	=59	=59	=59	=59	=59	=59	=59	=59	=59	=59	=59	=59	=59	=59	=59	=59	=59	=59	=59	=59	=59	=59	=59	=59
!	!	!LO:LB:g=original	!	!	!	!	!	!	!	!	!	!	!	!	!	!	!	!	!	!	!	!	!	!	!	!	!
!	!	!	!	!	!LO:SIC:o=:v:tekst słowny "dextram" zamiast "dexteram"	!	!	!LO:SIC:o=:v:tekst słowny "dextram" zamiast "dexteram"	!	!	!LO:SIC:o=:v:tekst słowny "dextram" zamiast "dexteram"	!	!	!	!	!	!	!	!	!	!	!	!	!	!	!	!
2.r	.	4G\	dex-	.	4G\	dex-	.	4G/	dex-	.	4G/	dex-	.	2.r	.	2.r	.	2.r	.	2.r	.	2.r	.	2.r	.	2.r	.
.	.	8G\	-te-	.	8G\	-tram	.	8G/	-tram	.	8G/	-tram	.	.	.	.	.	.	.	.	.	.	.	.	.	.	.
.	.	4.F\	-ram	.	4.F\	.	.	(>4.F/	pa-	.	4.F/	pa-	.	.	.	.	.	.	.	.	.	.	.	.	.	.	.
=60	=60	=60	=60	=60	=60	=60	=60	=60	=60	=60	=60	=60	=60	=60	=60	=60	=60	=60	=60	=60	=60	=60	=60	=60	=60	=60	=60
!	!	!	!	!	!	!	!	!	!	!	!LO:LB:g=original	!	!	!	!	!	!	!	!	!	!	!	!	!	!	!	!
2.r	.	4.G\	pa-	.	(4.G\	pa-	.	4.G/	.	.	4.G/	.	.	2.r	.	2.r	.	2.r	.	2.r	.	2.r	.	2.r	.	2.r	.
.	.	4.A\	.	.	4.A\)	.	.	4.A/)	.	.	4.A/	.	.	.	.	.	.	.	.	.	.	.	.	.	.	.	.
=61	=61	=61	=61	=61	=61	=61	=61	=61	=61	=61	=61	=61	=61	=61	=61	=61	=61	=61	=61	=61	=61	=61	=61	=61	=61	=61	=61
2.r	.	4F\	-tris	.	4F\	-tris	.	4F/	-tris	.	4F/	-tris	.	2.r	.	2.r	.	2.r	.	2.r	.	2.r	.	2.r	.	2.r	.
.	.	8r	.	.	8r	.	.	8r	.	.	8r	.	.	.	.	.	.	.	.	.	.	.	.	.	.	.	.
.	.	8r	.	.	8r	.	.	8r	.	.	4r	.	.	.	.	.	.	.	.	.	.	.	.	.	.	.	.
.	.	8D\	mi-	.	8F\	mi-	.	8B-X\	mi-	.	.	.	.	.	.	.	.	.	.	.	.	.	.	.	.	.	.
.	.	8D\	-se-	.	8F\	-se-	.	8B-\	-se-	.	8r	.	.	.	.	.	.	.	.	.	.	.	.	.	.	.	.
=62	=62	=62	=62	=62	=62	=62	=62	=62	=62	=62	=62	=62	=62	=62	=62	=62	=62	=62	=62	=62	=62	=62	=62	=62	=62	=62	=62
!	!	!	!	!	!LO:LB:g=original	!	!	!	!	!	!	!	!	!	!	!	!	!	!	!	!	!	!	!	!	!	!
!	!	!	!	!	!	!	!	!LO:SIC:o:s=:v:8B-	!	!	!	!	!	!	!	!	!	!	!	!	!	!	!	!	!	!	!
2.r	.	4C#X/	-re-	.	4G\	-re-	.	8B\L	-re-	.	8r	.	.	2.r	.	2.r	.	2.r	.	2.r	.	2.r	.	2.r	.	2.r	.
.	.	.	.	.	.	.	.	8A\J	.	.	8e\	mi-	.	.	.	.	.	.	.	.	.	.	.	.	.	.	.
.	.	8C#/	-re	.	8G\	-re	.	8A\	-re	.	8e\	-se-	.	.	.	.	.	.	.	.	.	.	.	.	.	.	.
.	.	8r	.	.	8r	.	.	8r	.	.	8e\L	-re-	.	.	.	.	.	.	.	.	.	.	.	.	.	.	.
*	*	*	*	*	*	*ij	*	*	*ij	*	*	*	*	*	*	*	*	*	*	*	*	*	*	*	*	*	*
.	.	8D/	mi-	.	8F\	mi-	.	8A\	mi-	.	8d\J	.	.	.	.	.	.	.	.	.	.	.	.	.	.	.	.
.	.	8Cn/	-se-	.	8F\	-se-	.	8A\	-se-	.	8d\	-re	.	.	.	.	.	.	.	.	.	.	.	.	.	.	.
=63	=63	=63	=63	=63	=63	=63	=63	=63	=63	=63	=63	=63	=63	=63	=63	=63	=63	=63	=63	=63	=63	=63	=63	=63	=63	=63	=63
2.r	.	4BBn/	-re-	.	4F\	-re-	.	8A\L	-re-	.	8r	.	.	2.r	.	2.r	.	2.r	.	2.r	.	2.r	.	2.r	.	2.r	.
*	*	*	*	*	*	*	*	*	*	*	*	*ij	*	*	*	*	*	*	*	*	*	*	*	*	*	*	*
.	.	.	.	.	.	.	.	8G\J	.	.	8d\	mi-	.	.	.	.	.	.	.	.	.	.	.	.	.	.	.
.	.	8BB/	-re	.	8F\	-re	.	8G\	-re	.	8d\	-se-	.	.	.	.	.	.	.	.	.	.	.	.	.	.	.
*	*	*	*	*	*	*	*	*	*Xij	*	*	*	*	*	*	*	*	*	*	*	*	*	*	*	*	*	*
.	.	8r	.	.	8r	.	.	8r	.	.	8d\L	-re-	.	.	.	.	.	.	.	.	.	.	.	.	.	.	.
.	.	8C/	mi-	.	8E\	mi-	.	8G\	mi-	.	8c\J	.	.	.	.	.	.	.	.	.	.	.	.	.	.	.	.
.	.	8BB-X/	-se-	.	8E\	-se-	.	8G\	-se-	.	8c\	-re	.	.	.	.	.	.	.	.	.	.	.	.	.	.	.
=64	=64	=64	=64	=64	=64	=64	=64	=64	=64	=64	=64	=64	=64	=64	=64	=64	=64	=64	=64	=64	=64	=64	=64	=64	=64	=64	=64
!	!	!	!	!	!	!	!	!LO:LB:g=original	!	!	!	!	!	!	!	!	!	!	!	!	!	!	!	!	!	!	!
2.r	.	4AA/	-re-	.	8E\L	-re-	.	8G/L	-re-	.	8r	.	.	2.r	.	2.r	.	2.r	.	2.r	.	2.r	.	2.r	.	2.r	.
.	.	.	.	.	8F\J	.	.	8F/J	.	.	8c\	mi-	.	.	.	.	.	.	.	.	.	.	.	.	.	.	.
.	.	8AA/	-re	.	8F\	-re	.	8F/	-re	.	8c\	-se-	.	.	.	.	.	.	.	.	.	.	.	.	.	.	.
*	*	*	*	*	*	*Xij	*	*	*	*	*	*	*	*	*	*	*	*	*	*	*	*	*	*	*	*	*
!	!	!LO:SIC:o=:v:łuk<>	!	!	!	!	!	!	!	!	!	!	!	!	!	!	!	!	!	!	!	!	!	!	!	!	!
.	.	[4.BB-X/	no-	.	4.D\	no-	.	4.F/	no-	.	8c\L	-re-	.	.	.	.	.	.	.	.	.	.	.	.	.	.	.
.	.	.	.	.	.	.	.	.	.	.	8B-X\J	.	.	.	.	.	.	.	.	.	.	.	.	.	.	.	.
.	.	.	.	.	.	.	.	.	.	.	8B-\	-re	.	.	.	.	.	.	.	.	.	.	.	.	.	.	.
*	*	*	*	*	*	*	*	*	*	*	*	*Xij	*	*	*	*	*	*	*	*	*	*	*	*	*	*	*
=65	=65	=65	=65	=65	=65	=65	=65	=65	=65	=65	=65	=65	=65	=65	=65	=65	=65	=65	=65	=65	=65	=65	=65	=65	=65	=65	=65
!	!	!LO:LB:g=original	!	!	!	!	!	!	!	!	!LO:LB:g=original	!	!	!	!	!	!	!	!	!	!	!	!	!	!	!	!
2.r	.	4.BB-X/]	.	.	2.D\	.	.	4.A-X\	.	.	[2.f\	no-	.	2.r	.	2.r	.	2.r	.	2.r	.	2.r	.	2.r	.	2.r	.
.	.	4.BBn/	.	.	.	.	.	4.G\	.	.	.	.	.	.	.	.	.	.	.	.	.	.	.	.	.	.	.
=66	=66	=66	=66	=66	=66	=66	=66	=66	=66	=66	=66	=66	=66	=66	=66	=66	=66	=66	=66	=66	=66	=66	=66	=66	=66	=66	=66
2.r	.	4.C/	.	.	4.C\	-bis	.	4.An\	.	.	2.f\]	.	.	2.r	.	2.r	.	2.r	.	2.r	.	2.r	.	2.r	.	2.r	.
.	.	4.D/	.	.	4.F\	qui	.	4.B-X\	.	.	.	.	.	.	.	.	.	.	.	.	.	.	.	.	.	.	.
=67	=67	=67	=67	=67	=67	=67	=67	=67	=67	=67	=67	=67	=67	=67	=67	=67	=67	=67	=67	=67	=67	=67	=67	=67	=67	=67	=67
4r	.	4.D/	.	.	4.F\	se-	.	4.Bn\	.	.	4.f\	.	.	2.r	.	2.r	.	2.r	.	4r	.	4r	.	4r	.	4r	.
8r	.	.	.	.	.	.	.	.	.	.	.	.	.	.	.	.	.	.	.	8r	.	8r	.	8r	.	8r	.
8r	.	4.C/	.	.	4.G\	.	.	4.c\	.	.	4.e-X\	.	.	.	.	.	.	.	.	8r	.	8r	.	8r	.	8r	.
8C/L	.	.	.	.	.	.	.	.	.	.	.	.	.	.	.	.	.	.	.	8cc\L	.	8ee-X\L	.	8c/L	.	8g\L	.
8E/J	.	.	.	.	.	.	.	.	.	.	.	.	.	.	.	.	.	.	.	8cc\J	.	8ee-\J	.	8c/J	.	8g\J	.
=68	=68	=68	=68	=68	=68	=68	=68	=68	=68	=68	=68	=68	=68	=68	=68	=68	=68	=68	=68	=68	=68	=68	=68	=68	=68	=68	=68
!	!	!	!	!	!	!	!	!	!	!	!	!	!	!LO:LB:g=original	!	!	!	!	!	!LO:LB:g=original	!	!	!	!	!	!	!
!	!	!	!	!	!	!	!	!LO:SIC:o=:v:niejednoznaczny zapis łuku	!	!	!LO:SIC:o=:v:niejednoznaczny zapis łuku	!	!	!	!	!	!	!	!	!	!	!	!	!	!	!	!
4.G\	.	4.GG/	.	.	4.G\	.	.	(4Bn\	.	.	(4d\	.	.	4r	.	4r	.	4r	.	8b\	.	8dd\	.	8g\	.	8g\	.
.	.	.	.	.	.	.	.	.	.	.	.	.	.	.	.	.	.	.	.	8r	.	8r	.	8r	.	8r	.
.	.	.	.	.	.	.	.	16d\LL	.	.	16f\LL	.	.	8r	.	8r	.	8r	.	8r	.	8r	.	8r	.	8r	.
.	.	.	.	.	.	.	.	16c\JJ)	.	.	16e-X\JJ)	.	.	.	.	.	.	.	.	.	.	.	.	.	.	.	.
4G\	.	4GG/	-bis	.	4G\	-des	.	4B\	-bis	.	4d\	-bis	.	16GG/LL	.	4g/	.	4dd\	.	4b\	.	4dd;\	.	4g\	.	4g\	.
.	.	.	.	.	.	.	.	.	.	.	.	.	.	16GG/	.	.	.	.	.	.	.	.	.	.	.	.	.
.	.	.	.	.	.	.	.	.	.	.	.	.	.	16GG/	.	.	.	.	.	.	.	.	.	.	.	.	.
.	.	.	.	.	.	.	.	.	.	.	.	.	.	16GG/JJ	.	.	.	.	.	.	.	.	.	.	.	.	.
!	!	!	!	!	!	!	!	!	!	!	!	!	!	!	!	!	!	!	!	!	!	!LO:SIC:o:s=:v:brak pauzy ósemkowej	!	!	!	!	!
8r;	.	8r;	.	f	8r;	.	.	8r;	.	.	8r;	.	.	8r;	.	8r;	.	8r;	f	8r;	f	8ryy	f	8r;	f	8r;	f
.	f	.	.	.	.	.	.	.	.	f	.	.	f	.	.	.	.	.	.	.	.	.	.	.	.	.	.
=69	=69	=69	=69	=69	=69	=69	=69	=69	=69	=69	=69	=69	=69	=69	=69	=69	=69	=69	=69	=69	=69	=69	=69	=69	=69	=69	=69
!	!	!	!	!	!LO:LB:g=original	!	!	!	!	!	!	!	!	!	!	!LO:LB:g=original	!	!	!	!	!	!	!	!	!	!	!
!	!	!	!	!	!	!	!LO:DY:a:rj	!	!	!	!	!	!	!	!	!	!LO:DY:rj	!	!	!	!	!	!	!	!	!	!
[4.C/	.	4C/	Quo-	.	4E\	Quo-	f	4G/	Quo-	.	4c\	Quo-	.	16C/LL	.	8.c/L	f	8.c/L	.	4.e/	.	4.cc\	.	4.c/	.	4.g\	.
.	.	.	.	.	.	.	.	.	.	.	.	.	.	16C/	.	.	.	.	.	.	.	.	.	.	.	.	.
.	.	.	.	.	.	.	.	.	.	.	.	.	.	16C/	.	.	.	.	.	.	.	.	.	.	.	.	.
.	.	.	.	.	.	.	.	.	.	.	.	.	.	16C/	.	16e/K	.	16e/K	.	.	.	.	.	.	.	.	.
.	.	8C/	-ni-	.	8E\	-ni-	.	8G/	-ni-	.	8c\	-ni-	.	16C/	.	8g/J	.	8g/J	.	.	.	.	.	.	.	.	.
.	.	.	.	.	.	.	.	.	.	.	.	.	.	16C/JJ	.	.	.	.	.	.	.	.	.	.	.	.	.
4C/]	.	4C/	-am	.	8.E\L	-am	.	4G/	-am	.	8.c\L	-am	.	8C/	.	4e/	.	4cc\	.	8e/	.	4cc\	.	8c/	.	8g\	.
.	.	.	.	.	.	.	.	.	.	.	.	.	.	8r	.	.	.	.	.	8r	.	.	.	8r	.	8r	.
.	.	.	.	.	16D\Jk	.	.	.	.	.	16B\Jk	.	.	.	.	.	.	.	.	.	.	.	.	.	.	.	.
8r	.	8C/	tu	.	8E\	tu	.	8G/	tu	.	8c\	tu	.	8r	.	8r	.	8r	.	8r	.	8r	.	8r	.	8r	.
=70	=70	=70	=70	=70	=70	=70	=70	=70	=70	=70	=70	=70	=70	=70	=70	=70	=70	=70	=70	=70	=70	=70	=70	=70	=70	=70	=70
!LO:LB:g=original	!	!	!	!	!	!	!	!	!	!	!	!	!	!	!	!	!	!	!	!	!	!	!	!	!	!	!
4.GG/	.	4.GG/	so-	.	4.G\	so-	.	4.B\	so-	.	[4.d\	so-	.	16GG/LL	.	4.g/	.	4.dd\	.	4.b\	.	4.dd\	.	4.g\	.	4.g\	.
.	.	.	.	.	.	.	.	.	.	.	.	.	.	16GG/	.	.	.	.	.	.	.	.	.	.	.	.	.
.	.	.	.	.	.	.	.	.	.	.	.	.	.	16GG/	.	.	.	.	.	.	.	.	.	.	.	.	.
.	.	.	.	.	.	.	.	.	.	.	.	.	.	16GG/	.	.	.	.	.	.	.	.	.	.	.	.	.
.	.	.	.	.	.	.	.	.	.	.	.	.	.	16GG/	.	.	.	.	.	.	.	.	.	.	.	.	.
.	.	.	.	.	.	.	.	.	.	.	.	.	.	16GG/JJ	.	.	.	.	.	.	.	.	.	.	.	.	.
8GG/	.	4.G\	-lus	.	4G\	.	.	8.B\L	.	.	8.d\L]	.	.	8GG/	.	8g/	.	8dd\	.	8b\	.	4dd\	.	8g\	.	8g\	.
8r	.	.	.	.	.	.	.	.	.	.	.	.	.	8r	.	8r	.	8r	.	8r	.	.	.	8r	.	8r	.
.	.	.	.	.	.	.	.	16A#X\Jk	.	.	16c#X\Jk	.	.	.	.	.	.	.	.	.	.	.	.	.	.	.	.
8r	.	.	.	.	8G\	-lus	.	8B\	-lus	.	8d\	-lus	.	8r	.	8r	.	8r	.	8r	.	8r	.	8r	.	8r	.
=71	=71	=71	=71	=71	=71	=71	=71	=71	=71	=71	=71	=71	=71	=71	=71	=71	=71	=71	=71	=71	=71	=71	=71	=71	=71	=71	=71
!	!	!	!	!	!	!	!	!LO:LB:g=original	!	!	!	!	!	!	!	!	!	!	!	!	!	!	!	!	!	!	!
!	!	!	!	!	!	!	!	!	!	!	!	!	!	!LO:TX:a:i:t=5.	!	!LO:TX:a:i:t=5.	!	!LO:TX:a:i:t=5.	!	!	!	!	!	!	!	!	!
!	!	!	!	!	!	!	!	!	!	!	!	!	!	!LO:N:vis=00	!	!LO:N:vis=00	!	!LO:N:vis=00	!	!	!	!	!	!	!	!	!
2.C/	.	4.C/	(san)-	.	4.G\	(san)-	.	4.c\	san-	.	4.e\	san-	.	0.r	.	0.r	.	0.r	.	2.cc\	.	2.ee\	.	2.c/	.	2.g\	.
.	.	4C/	-ctus	.	4E\	-ctus	.	4G\	-ctus	.	4c\	-ctus	.	.	.	.	.	.	.	.	.	.	.	.	.	.	.
.	.	8r	.	.	8r	.	.	8r	.	p	8r	.	.	.	.	.	.	.	.	.	.	.	.	.	.	.	.
=72	=72	=72	=72	=72	=72	=72	=72	=72	=72	=72	=72	=72	=72	=72	=72	=72	=72	=72	=72	=72	=72	=72	=72	=72	=72	=72	=72
!	!	!	!	!	!	!	!	!	!	!	!LO:LB:g=original	!	!	!	!	!	!	!	!	!	!	!	!	!	!	!	!
!LO:TX:a:i:t=1.	!	!	!	!	!	!	!LO:DY:a:rj	!	!	!	!	!	!	!	!	!	!	!	!	!LO:TX:a:i:t=1.	!	!LO:TX:a:i:t=1	!	!LO:TX:a:i:t=1	!	!	!
2.r	.	4.C/	(san)-	p	4.G\	san-	p	4.c\	(san)-	.	4.e\	san-	p	.	.	.	.	.	.	2.r	.	2.r	.	2.r	.	2.r	.
!	!	!	!	!	!	!	!	!	!	!LO:DY:a	!	!	!	!	!	!	!	!	!	!	!	!	!	!	!	!	!
.	.	4C/	-ctus	.	4E\	-ctus	.	4G\	-ctus	f	8c\	-ctus	.	.	.	.	.	.	.	.	.	.	.	.	.	.	.
.	.	.	.	.	.	.	.	.	.	.	8r	.	f	.	.	.	.	.	.	.	.	.	.	.	.	.	.
.	.	8C/	tu	.	8C\	tu	.	8G\	tu	.	8e\	tu	.	.	.	.	.	.	.	.	.	.	.	.	.	.	.
=73	=73	=73	=73	=73	=73	=73	=73	=73	=73	=73	=73	=73	=73	=73	=73	=73	=73	=73	=73	=73	=73	=73	=73	=73	=73	=73	=73
!	!	!LO:LB:g=original	!	!	!	!	!	!	!	!	!	!	!	!	!	!	!	!	!	!	!	!	!	!	!	!LO:LB:g=original	!
2.C/	.	4C/	so-	.	4C/	so-	.	4A\	so-	.	4f\	so-	.	.	.	.	.	.	.	4.cc\	.	4.cc\	.	2.f\	.	4.a\	.
.	.	8C/	-lus	.	8C/	-lus	.	8A\	-lus	.	8f\	-lus	.	.	.	.	.	.	.	.	.	.	.	.	.	.	.
.	.	4C/	do-	.	4F\	do-	.	4B\	Do-	.	4d\	Do-	.	.	.	.	.	.	.	4.b\	.	4.dd\	.	.	.	4.f\	.
.	.	8C/	-mi-	.	8F\	-mi-	.	8B\	-mi-	.	8d\	-mi-	.	.	.	.	.	.	.	.	.	.	.	.	.	.	.
=74	=74	=74	=74	=74	=74	=74	=74	=74	=74	=74	=74	=74	=74	=74	=74	=74	=74	=74	=74	=74	=74	=74	=74	=74	=74	=74	=74
8C/	.	8.C/L	-nus	.	8.E\L	-nus	.	4c\	-nus	.	4c\	-nus	.	.	.	.	.	.	.	8cc\	.	8.cc\L	.	8c/	.	8.e\L	.
8r	.	.	.	.	.	.	.	.	.	.	.	.	.	.	.	.	.	.	.	8r	.	.	.	8r	.	.	.
.	.	16D/Jk	.	.	16F\Jk	.	.	.	.	.	.	.	.	.	.	.	.	.	.	.	.	16dd\K	.	.	.	16f\K	.
8r	.	8E/	tu	.	8G\	tu	.	8r	.	.	8r	.	.	.	.	.	.	.	.	8r	.	8ee\J	.	8r	.	8g\J	.
8C/	.	8.E/L	so-	.	8.G\L	so-	.	4r	.	.	4r	.	.	.	.	.	.	.	.	8cc\	.	8.ee\L	.	8c/	.	8.g\L	.
8r	.	.	.	.	.	.	.	.	.	.	.	.	.	.	.	.	.	.	.	8r	.	.	.	8r	.	.	.
.	.	16D/Jk	.	.	16F\Jk	.	.	.	.	.	.	.	.	.	.	.	.	.	.	.	.	16dd\K	.	.	.	16f\K	.
8r	.	8C/	-lus	.	8E\	-lus	.	8r	.	.	8r	.	.	.	.	.	.	.	.	8r	.	8cc\J	.	8r	.	8e\J	.
=75	=75	=75	=75	=75	=75	=75	=75	=75	=75	=75	=75	=75	=75	=75	=75	=75	=75	=75	=75	=75	=75	=75	=75	=75	=75	=75	=75
!	!	!	!	!	!LO:LB:g=original	!	!	!	!	!	!	!	!	!	!	!	!	!	!	!	!	!	!	!	!	!	!
2.C/	.	8.C/	so-	.	8.C/	so-	.	8.A\	so-	.	8.f\	so-	.	2.r	.	2.r	.	2.r	.	4.cc\	.	4.cc\	.	2.f\	.	4.a\	.
.	.	16C/	-lus	.	16C/	-lus	.	16A\	-lus	.	16f\	-lus	.	.	.	.	.	.	.	.	.	.	.	.	.	.	.
.	.	8C/	al-	.	8C/	al-	.	8A\	al-	.	8f\	al-	.	.	.	.	.	.	.	.	.	.	.	.	.	.	.
!	!	!	!	!	!	!	!	!	!	!	!	!	!	!	!	!	!	!	!	!	!	!LO:TX:a:i:t=re=	!	!	!	!	!
.	.	4C/	-tis-	.	4F\	-tis-	.	4B\	-tis-	.	4d\	-tis-	.	.	.	.	.	.	.	4.b\	.	4.dd\	.	.	.	4.f\	.
.	.	8C/	-si-	.	8F\	-si-	.	8B\	-si-	.	8d\	-si-	.	.	.	.	.	.	.	.	.	.	.	.	.	.	.
=76	=76	=76	=76	=76	=76	=76	=76	=76	=76	=76	=76	=76	=76	=76	=76	=76	=76	=76	=76	=76	=76	=76	=76	=76	=76	=76	=76
!	!	!	!	!	!	!	!	!	!	!	!	!	!	!	!	!	!	!	!	!	!	!	!	!LO:LB:g=original	!	!	!
!	!	!	!	!	!	!	!	!	!	!	!	!	!	!	!	!	!	!	!	!	!	!LO:TX:a:i:t=tro	!	!	!	!	!
8C/	.	8.C/	-mus	.	(8.E\	-mus	.	4c\	-mus	.	4c\	-mus	.	8C/	.	8e/	.	8cc\	.	8cc\	.	8.cc\L	.	8c/	.	8.e\L	.
8r	.	.	.	.	.	.	.	.	.	.	.	.	.	8r	.	8r	.	8r	.	8r	.	.	.	8r	.	.	.
.	.	16D/	.	.	16F\)	.	.	.	.	.	.	.	.	.	.	.	.	.	.	.	.	16dd\K	.	.	.	16f\K	.
8r	.	8E/	al-	.	8G\	al-	.	8r	.	.	8r	.	.	8r	.	8r	.	8r	.	8r	.	8ee\J	.	8r	.	8g\J	.
8C/	.	8.E/L	-tis-	.	8.G\	-tis-	.	4r	.	.	4r	.	.	8C/	.	8e/	.	8cc\	.	8cc\	.	8.ee\L	.	8c/	.	8.g\L	.
8r	.	.	.	.	.	.	.	.	.	.	.	.	.	8r	.	8r	.	8r	.	8r	.	.	.	8r	.	.	.
.	.	16D/Jk	-si-	.	16F\	-si-	.	.	.	.	.	.	.	.	.	.	.	.	.	.	.	16dd\K	.	.	.	16f\K	.
8r	.	8C/	-mus	.	8E\	-mus	.	8r	.	.	8r	.	.	8r	.	8r	.	8r	.	8r	.	8cc\J	.	8r	.	8e\J	.
=77	=77	=77	=77	=77	=77	=77	=77	=77	=77	=77	=77	=77	=77	=77	=77	=77	=77	=77	=77	=77	=77	=77	=77	=77	=77	=77	=77
!	!	!	!	!	!	!	!	!LO:LB:g=original	!	!	!	!	!	!	!	!	!	!	!	!LO:LB:g=original	!	!	!	!	!	!	!
8GG/	.	4.GG/	Je-	.	4.G\	Je-	.	4.B\	Je-	.	4.d\	Je-	.	8GG/	.	8g/	.	8dd\	.	8b\	.	8dd\	.	8BX/	.	8g\	.
8r	.	.	.	.	.	.	.	.	.	.	.	.	.	8r	.	8r	.	8r	.	8r	.	8r	.	8r	.	8r	.
8r	.	.	.	.	.	.	.	.	.	.	.	.	.	8r	.	8r	.	8r	.	8r	.	8r	.	8r	.	8r	.
8G\	.	4.G\	-su	.	4.G\	-su	.	8.B\L	.	.	8.d\L	.	.	8GG/	.	8g/	.	8dd\	.	8b\	.	8dd\	.	8B/	.	8g\	.
8r	.	.	.	.	.	.	.	.	.	.	.	.	.	8r	.	8r	.	8r	.	8r	.	8r	.	8r	.	8r	.
.	.	.	.	.	.	.	.	16A#X\Jk	.	.	16c#X\Jk	.	.	.	.	.	.	.	.	.	.	.	.	.	.	.	.
8r	.	.	.	.	.	.	.	8B\	-su	.	8d\	-su	.	8r	.	8r	.	8r	.	8r	.	8r	.	8r	.	8r	.
=78	=78	=78	=78	=78	=78	=78	=78	=78	=78	=78	=78	=78	=78	=78	=78	=78	=78	=78	=78	=78	=78	=78	=78	=78	=78	=78	=78
!	!	!LO:LB:g=original	!	!	!	!	!	!	!	!	!LO:LB:g=original	!	!	!	!	!	!	!LO:LB:g=original	!	!	!	!LO:LB:g=original	!	!	!	!	!
4.C/	.	4.C/	Chri-	.	4.G\	Chri-	.	4.c\	Chri-	.	4.e\	Chri-	.	16C/LL	.	4.e/	.	4.cc\	.	8cc\	.	4.ee\	.	[4.c/	.	[4.g\	.
.	.	.	.	.	.	.	.	.	.	.	.	.	.	16C/	.	.	.	.	.	.	.	.	.	.	.	.	.
.	.	.	.	.	.	.	.	.	.	.	.	.	.	16C/	.	.	.	.	.	8r	.	.	.	.	.	.	.
.	.	.	.	.	.	.	.	.	.	.	.	.	.	16C/	.	.	.	.	.	.	.	.	.	.	.	.	.
.	.	.	.	.	.	.	.	.	.	.	.	.	.	16C/	.	.	.	.	.	8r	.	.	.	.	.	.	.
.	.	.	.	.	.	.	.	.	.	.	.	.	.	16C/JJ	.	.	.	.	.	.	.	.	.	.	.	.	.
4C/	.	4C/	-ste	.	4E\	-ste	.	4G\	-ste,	.	4c\	-sti	.	4C/	.	4e/	.	4cc\	.	8b\	.	8ee\L	.	8c/L]	.	8g\L]	.
.	.	.	.	.	.	.	.	.	.	.	.	.	.	.	.	.	.	.	.	8r	.	8cc\	.	8c/	.	8c\	.
8r	.	8C/	cum	.	8G\	cum	.	8c\	cum	.	8e\	cum	.	8r	.	8r	.	8r	.	8r	.	8cc\J	.	8c/J	.	8c\J	.
=79	=79	=79	=79	=79	=79	=79	=79	=79	=79	=79	=79	=79	=79	=79	=79	=79	=79	=79	=79	=79	=79	=79	=79	=79	=79	=79	=79
!	!	!	!	!	!	!	!	!	!	!	!	!	!	!LO:LB:g=original	!	!	!	!	!	!	!	!	!	!	!	!	!
!	!	!	!	!	!	!	!	!	!	!	!	!	!	!LO:TX:a:i:t=3.	!	!LO:TX:a:i:t=3.	!	!LO:TX:a:i:t=3.	!	!	!	!	!	!	!	!	!
!	!	!	!	!	!	!	!	!	!	!	!	!	!	!LO:N:vis=0	!	!LO:N:vis=0	!	!LO:N:vis=0	!	!	!	!	!	!	!	!	!
2.C/	.	4C/	(san)-	.	4C/	(san)-	.	4A\	(san)-	.	4f\	san-	.	1.r	.	1.r	.	1.r	.	8cc\	.	4.cc\	.	2.f\	.	4.a\	.
.	.	.	.	.	.	.	.	.	.	.	.	.	.	.	.	.	.	.	.	8r	.	.	.	.	.	.	.
.	.	8C/	-cto	.	8C/	-cto	.	8A\	-cto	.	8f\	-ctus	.	.	.	.	.	.	.	8r	.	.	.	.	.	.	.
.	.	4C/	spi-	.	4F\	spi-	.	4B\	spi-	.	4d\	spi-	.	.	.	.	.	.	.	8b\	.	4.dd\	.	.	.	4.f\	.
.	.	.	.	.	.	.	.	.	.	.	.	.	.	.	.	.	.	.	.	8r	.	.	.	.	.	.	.
.	.	8C/	-ri-	.	8F\	-ri-	.	8B\	-ri-	.	8d\	-ri-	.	.	.	.	.	.	.	8r	.	.	.	.	.	.	.
=80	=80	=80	=80	=80	=80	=80	=80	=80	=80	=80	=80	=80	=80	=80	=80	=80	=80	=80	=80	=80	=80	=80	=80	=80	=80	=80	=80
!LO:LB:g=original	!	!	!	!	!LO:LB:g=original	!	!	!	!	!	!	!	!	!	!	!	!	!	!	!	!	!	!	!	!	!	!
8C/	.	8.C/L	-tu	.	8.E\L	-tu	.	4c\	-tu	.	4c\	-tus	.	.	.	.	.	.	.	8cc\	.	8.cc\L	.	8c/	.	8.e\L	.
8r	.	.	.	.	.	.	.	.	.	.	.	.	.	.	.	.	.	.	.	8r	.	.	.	8r	.	.	.
.	.	16D/Jk	.	.	16F\Jk	.	.	.	.	.	.	.	.	.	.	.	.	.	.	.	.	16dd\K	.	.	.	16f\K	.
8r	.	8E/	in	.	8G\	in	.	8r	.	.	8r	.	.	.	.	.	.	.	.	8r	.	8ee\J	.	8r	.	8g\J	.
8C/	.	8.E/	go-	.	8.G\	go-	.	4r	.	.	4r	.	.	.	.	.	.	.	.	8cc\	.	8.ee\L	.	8c/	.	8.g\L	.
8r	.	.	.	.	.	.	.	.	.	.	.	.	.	.	.	.	.	.	.	8r	.	.	.	8r	.	.	.
.	.	16D/	-ri-	.	16F\	-ri-	.	.	.	.	.	.	.	.	.	.	.	.	.	.	.	16dd\K	.	.	.	16f\K	.
8r	.	8C/	-a	.	8E\	-a	.	8G/	in	.	8e\	in	.	.	.	.	.	.	.	8r	.	8cc\J	.	8r	.	8e\J	.
=81	=81	=81	=81	=81	=81	=81	=81	=81	=81	=81	=81	=81	=81	=81	=81	=81	=81	=81	=81	=81	=81	=81	=81	=81	=81	=81	=81
!	!	!	!	!	!	!	!	!	!	!	!	!	!	!	!	!	!	!	!	!	!	!	!	!	!	!LO:LB:g=original	!
2.C/	.	4.C/	De-	.	4.C/	De-	.	8.A\	glo-	.	8.f\	glo-	.	2.r	.	2.r	.	2.r	.	4.cc\	.	4.cc\	.	2.f\	.	4.a\	.
.	.	.	.	.	.	.	.	16A\	-ri-	.	16f\	-ri-	.	.	.	.	.	.	.	.	.	.	.	.	.	.	.
.	.	.	.	.	.	.	.	8A\	-a	.	8f\	-a	.	.	.	.	.	.	.	.	.	.	.	.	.	.	.
.	.	4.C/	-i	.	4.F\	-i	.	4B\	De-	.	4d\	De-	.	.	.	.	.	.	.	4.b\	.	4.dd\	.	.	.	4.f\	.
.	.	.	.	.	.	.	.	8B\	-i	.	8d\	-i	.	.	.	.	.	.	.	.	.	.	.	.	.	.	.
=82	=82	=82	=82	=82	=82	=82	=82	=82	=82	=82	=82	=82	=82	=82	=82	=82	=82	=82	=82	=82	=82	=82	=82	=82	=82	=82	=82
8C/	.	8.C/L	pa-	.	8.E\L	pa-	.	4.c\	pa-	.	4.c\	pa-	.	8C/	.	8e/	.	8cc\	.	8cc\	.	8.cc\L	.	8c/	.	8.e\L	.
8r	.	.	.	.	.	.	.	.	.	.	.	.	.	8r	.	8r	.	8r	.	8r	.	.	.	8r	.	.	.
.	.	16D/Jk	.	.	16F\Jk	.	.	.	.	.	.	.	.	.	.	.	.	.	.	.	.	16dd\K	.	.	.	16f\K	.
8r	.	8E/	-tris	.	8G\	-tris	.	.	.	.	.	.	.	8r	.	8r	.	8r	.	8r	.	8ee\J	.	8r	.	8g\J	.
8C/	.	8.E/L	a-	.	8.G\L	a-	.	4.c\	-tris	.	4.c\	-tris	.	8C/	.	8e/	.	8cc\	.	8cc\	.	8.ee\L	.	8c/	.	8.g\L	.
8r	.	.	.	.	.	.	.	.	.	.	.	.	.	8r	.	8r	.	8r	.	8r	.	.	.	8r	.	.	.
.	.	16D/Jk	.	.	16F\Jk	.	.	.	.	.	.	.	.	.	.	.	.	.	.	.	.	16dd\K	.	.	.	16f\K	.
8r	.	8C/	-men	.	8E\	-men	.	.	.	.	.	.	.	8r	.	8r	.	8r	.	8r	.	8cc\J	.	8r	.	8e\J	.
=83	=83	=83	=83	=83	=83	=83	=83	=83	=83	=83	=83	=83	=83	=83	=83	=83	=83	=83	=83	=83	=83	=83	=83	=83	=83	=83	=83
!	!	!	!	!	!	!	!	!LO:LB:g=original	!	!	!	!	!	!	!	!LO:LB:g=original	!	!	!	!	!	!	!	!	!	!	!
8GG/	.	4.GG/	a-	.	2.G\	a-	.	4.B\	a-	.	[4.d\	a-	.	8GG/	.	8g/	.	8dd\	.	8b\	.	8dd\	.	8g\	.	8g\	.
8r	.	.	.	.	.	.	.	.	.	.	.	.	.	8r	.	8r	.	8r	.	8r	.	8r	.	8r	.	8r	.
8r	.	.	.	.	.	.	.	.	.	.	.	.	.	8r	.	8r	.	8r	.	8r	.	8r	.	8r	.	8r	.
8G\	.	4.G\	.	.	.	.	.	8.B\L	.	.	8.d\L]	.	.	8GG/	.	8g/	.	8dd\	.	8b\	.	8dd\	.	8g\	.	8g\	.
8r	.	.	.	.	.	.	.	.	.	.	.	.	.	8r	.	8r	.	8r	.	8r	.	8r	.	8r	.	8r	.
.	.	.	.	.	.	.	.	16A#X\K	.	.	16c#X\K	.	.	.	.	.	.	.	.	.	.	.	.	.	.	.	.
8r	.	.	.	.	.	.	.	8B\J	.	.	8d\J	.	.	8r	.	8r	.	8r	.	8r	.	8r	.	8r	.	8r	.
=84	=84	=84	=84	=84	=84	=84	=84	=84	=84	=84	=84	=84	=84	=84	=84	=84	=84	=84	=84	=84	=84	=84	=84	=84	=84	=84	=84
!	!	!	!	!	!	!	!	!	!	!	!LO:LB:g=original	!	!	!	!	!	!	!	!	!	!	!	!	!LO:LB:g=original	!	!	!
*	*	*	*	*	*	*	*	*	*	*	*	*	*	*	*	*	*	*	*	*	*	*	*	*	*	*rep	*
8C/	.	4C\	-men	.	2.G\	.	.	8.c\L	.	.	8.e\L	.	.	8C/	.	8e/	.	8cc\	.	8cc\	.	8ee\	.	8c/	.	8g\	.
8r	.	.	.	.	.	.	.	.	.	.	.	.	.	8r	.	8r	.	8r	.	8r	.	8r	.	8r	.	8r	.
.	.	.	.	.	.	.	.	16d\K	.	.	16f\K	.	.	.	.	.	.	.	.	.	.	.	.	.	.	.	.
8r	.	8E\	.	.	.	.	.	8c\J	.	.	8e\J	.	.	8r	.	8r	.	8r	.	8r	.	8r	.	8r	.	8r	.
8G\	.	4.G\	a-	.	.	.	.	8.B\L	.	.	8.d\L	.	.	8GG/	.	4r	.	4r	.	8b\	.	8dd\	.	8g\	.	8g\	.
8r	.	.	.	.	.	.	.	.	.	.	.	.	.	8r	.	.	.	.	.	8r	.	8r	.	8r	.	8r	.
.	.	.	.	.	.	.	.	16A#X\K	.	.	16c#X\K	.	.	.	.	.	.	.	.	.	.	.	.	.	.	.	.
8r	.	.	.	.	.	.	.	8B\J	.	.	8d\J	.	.	8r	.	8r	.	8r	.	8r	.	8r	.	8r	.	8r	.
*	*	*	*	*	*	*	*	*	*	*	*	*	*	*	*	*	*	*	*	*	*	*	*	*	*	*Xrep	*
=85	=85	=85	=85	=85	=85	=85	=85	=85	=85	=85	=85	=85	=85	=85	=85	=85	=85	=85	=85	=85	=85	=85	=85	=85	=85	=85	=85
!	!	!LO:LB:g=original	!	!	!	!	!	!	!	!	!	!	!	!	!	!	!	!	!	!LO:LB:g=original	!	!LO:LB:g=original	!	!	!	!	!
*	*	*	*	*	*	*	*	*	*	*	*	*	*	*	*	*	*	*	*	*	*	*	*	*rep	*	*rep	*
8C/	.	4C\	-men	.	2.G\	.	.	8.c\L	.	.	8.e\L	.	.	8C/	.	8e/	.	8cc\	.	8cc\	.	8ee\	.	8c/	.	8g\	.
8r	.	.	.	.	.	.	.	.	.	.	.	.	.	8r	.	8r	.	8r	.	8r	.	8r	.	8r	.	8r	.
.	.	.	.	.	.	.	.	16d\K	.	.	16f\K	.	.	.	.	.	.	.	.	.	.	.	.	.	.	.	.
8r	.	8E\	a-	.	.	.	.	8c\J	.	.	8e\J	.	.	8r	.	8r	.	8r	.	8r	.	8r	.	8r	.	8r	.
8G\	.	4.G\	.	.	.	.	.	8.B\L	.	.	8.d\L	.	.	8GG/	.	8g/	.	8dd\	.	8b\	.	8dd\	.	8g\	.	8g\	.
8r	.	.	.	.	.	.	.	.	.	.	.	.	.	8r	.	8r	.	8r	.	8r	.	8r	.	8r	.	8r	.
.	.	.	.	.	.	.	.	16A#X\K	.	.	16c#X\K	.	.	.	.	.	.	.	.	.	.	.	.	.	.	.	.
8r	.	.	.	.	.	.	.	8B\J	.	.	8d\J	.	.	8r	.	8r	.	8r	.	8r	.	8r	.	8r	.	8r	.
*	*	*	*	*	*	*	*	*	*	*	*	*	*	*	*	*	*	*	*	*	*	*	*	*Xrep	*	*Xrep	*
=86	=86	=86	=86	=86	=86	=86	=86	=86	=86	=86	=86	=86	=86	=86	=86	=86	=86	=86	=86	=86	=86	=86	=86	=86	=86	=86	=86
!	!	!	!	!	!	!	!	!	!	!	!	!	!	!	!	!LO:SIC:o=:v:laseczki nut w dół z prawej strony	!	!	!	!	!	!	!	!	!	!	!
*	*	*	*	*	*	*	*	*	*	*	*	*	*	*	*	*2\right	*	*2\right	*	*	*	*	*	*	*	*	*
*	*	*	*	*	*	*	*	*	*	*	*	*	*	*	*	*	*	*tremolo	*	*tremolo	*	*tremolo	*	*tremolo	*	*tremolo	*
4.C/	.	4.C/	-men	.	4.G\	.	.	2.c\	.	.	2.e\	.	.	16C/LL	.	2.cc\	.	8ee\L	.	8cc\L	.	8ee\L	.	8c/L	.	8g\L	.
.	.	.	.	.	.	.	.	.	.	.	.	.	.	16C/	.	.	.	.	.	.	.	.	.	.	.	.	.
.	.	.	.	.	.	.	.	.	.	.	.	.	.	16C/	.	.	.	8ee\	.	8cc\	.	8ee\	.	8c/	.	8g\	.
.	.	.	.	.	.	.	.	.	.	.	.	.	.	16C/	.	.	.	.	.	.	.	.	.	.	.	.	.
.	.	.	.	.	.	.	.	.	.	.	.	.	.	16C/	.	.	.	8ee\	.	8cc\	.	8ee\	.	8c/J	.	8g\J	.
.	.	.	.	.	.	.	.	.	.	.	.	.	.	16C/	.	.	.	.	.	.	.	.	.	.	.	.	.
4.A\	.	4.AA\ 4.A\	a-	.	4.A\	.	.	.	.	.	.	.	.	16C/	.	.	.	8ee\	.	8cc\	.	8ee\	.	8A/L	.	8a\L	.
.	.	.	.	.	.	.	.	.	.	.	.	.	.	16C/	.	.	.	.	.	.	.	.	.	.	.	.	.
.	.	.	.	.	.	.	.	.	.	.	.	.	.	16C/	.	.	.	8ee\	.	8cc\	.	8ee\	.	8A/	.	8a\	.
.	.	.	.	.	.	.	.	.	.	.	.	.	.	16C/	.	.	.	.	.	.	.	.	.	.	.	.	.
.	.	.	.	.	.	.	.	.	.	.	.	.	.	16C/	.	.	.	8ee\J	.	8cc\J	.	8ee\J	.	8A/J	.	8a\J	.
.	.	.	.	.	.	.	.	.	.	.	.	.	.	16C/JJ	.	.	.	.	.	.	.	.	.	.	.	.	.
*	*	*	*	*	*	*	*	*	*	*	*	*	*	*	*	*	*	*Xtremolo	*	*	*	*	*	*	*	*	*
=87	=87	=87	=87	=87	=87	=87	=87	=87	=87	=87	=87	=87	=87	=87	=87	=87	=87	=87	=87	=87	=87	=87	=87	=87	=87	=87	=87
!LO:LB:g=original	!	!	!	!	!LO:LB:g=original	!	!	!	!	!	!	!	!	!	!	!	!	!LO:LB:g=original	!	!	!	!	!	!	!	!	!
4.F\	.	4.FF\ 4.F\	.	.	4.A\	.	.	4.c\	.	.	2.d\	.	.	4C/	.	4r	.	4r	.	8cc\L	.	8dd\L	.	8f\L	.	8a\L	.
.	.	.	.	.	.	.	.	.	.	.	.	.	.	.	.	.	.	.	.	8cc\	.	8dd\	.	8f\	.	8a\	.
.	.	.	.	.	.	.	.	.	.	.	.	.	.	8r	.	8r	.	8r	.	8cc\J	.	8dd\	.	8f\J	.	8a\J	.
4.G\	.	4.GG\ 4.G\	.	.	4.G\	.	.	4.B\	.	.	.	.	.	16GG/LL	.	4.g/	.	4.dd\	.	8b\L	.	8dd\	.	8f\L	.	8g\L	.
.	.	.	.	.	.	.	.	.	.	.	.	.	.	16GG/	.	.	.	.	.	.	.	.	.	.	.	.	.
.	.	.	.	.	.	.	.	.	.	.	.	.	.	16GG/	.	.	.	.	.	8b\	.	8dd\	.	8f\	.	8g\	.
.	.	.	.	.	.	.	.	.	.	.	.	.	.	16GG/	.	.	.	.	.	.	.	.	.	.	.	.	.
.	.	.	.	.	.	.	.	.	.	.	.	.	.	16GG/	.	.	.	.	.	8b\J	.	8dd\J	.	8f\J	.	8g\J	.
.	.	.	.	.	.	.	.	.	.	.	.	.	.	16GG/JJ	.	.	.	.	.	.	.	.	.	.	.	.	.
=88	=88	=88	=88	=88	=88	=88	=88	=88	=88	=88	=88	=88	=88	=88	=88	=88	=88	=88	=88	=88	=88	=88	=88	=88	=88	=88	=88
!	!	!	!	!	!	!	!	!	!	!	!	!	!	!LO:LB:g=original	!	!	!	!	!	!	!	!	!	!	!	!	!
4.C/	.	4.C\	.	.	4.G\	-men	.	2.c\	.	.	2.e\	.	.	16C/LL	.	2.cc\	.	2.ee\L	.	8cc\L	.	8ee\L	.	8c/L	.	8g\L	.
.	.	.	.	.	.	.	.	.	.	.	.	.	.	16C/	.	.	.	.	.	.	.	.	.	.	.	.	.
.	.	.	.	.	.	.	.	.	.	.	.	.	.	16C/	.	.	.	.	.	8cc\	.	8ee\	.	8c/	.	8g\	.
.	.	.	.	.	.	.	.	.	.	.	.	.	.	16C/	.	.	.	.	.	.	.	.	.	.	.	.	.
.	.	.	.	.	.	.	.	.	.	.	.	.	.	16C/	.	.	.	.	.	8cc\	.	8ee\	.	8c/J	.	8g\J	.
.	.	.	.	.	.	.	.	.	.	.	.	.	.	16C/	.	.	.	.	.	.	.	.	.	.	.	.	.
4.A\	.	4.AA\ 4.A\	.	.	4.A\	a-	.	.	.	.	.	.	.	16C/	.	.	.	.	.	8cc\	.	8ee\	.	8A/L	.	8a\L	.
.	.	.	.	.	.	.	.	.	.	.	.	.	.	16C/	.	.	.	.	.	.	.	.	.	.	.	.	.
.	.	.	.	.	.	.	.	.	.	.	.	.	.	16C/	.	.	.	.	.	8cc\	.	8ee\	.	8A/	.	8a\	.
.	.	.	.	.	.	.	.	.	.	.	.	.	.	16C/	.	.	.	.	.	.	.	.	.	.	.	.	.
.	.	.	.	.	.	.	.	.	.	.	.	.	.	16C/	.	.	.	.	.	8cc\J	.	8ee\J	.	8A/J	.	8a\J	.
.	.	.	.	.	.	.	.	.	.	.	.	.	.	16C/JJ	.	.	.	.	.	.	.	.	.	.	.	.	.
=89	=89	=89	=89	=89	=89	=89	=89	=89	=89	=89	=89	=89	=89	=89	=89	=89	=89	=89	=89	=89	=89	=89	=89	=89	=89	=89	=89
4.F\	.	4.FF\ 4.F\	.	.	4.A\	.	.	4.c\	.	.	2.d\	.	.	4C/	.	4r	.	4r	.	8cc\L	.	8dd\L	.	8f\L	.	8a\L	.
.	.	.	.	.	.	.	.	.	.	.	.	.	.	.	.	.	.	.	.	8cc\	.	8dd\	.	8f\	.	8a\	.
.	.	.	.	.	.	.	.	.	.	.	.	.	.	8r	.	8r	.	8r	.	8cc\J	.	8dd\	.	8f\J	.	8a\J	.
4.G\	.	4.GG\ 4.G\	.	.	4G\	.	.	4.B\	.	.	.	.	.	16GG/LL	.	4.g/	.	4.dd\	.	8b\L	.	8dd\	.	8f\L	.	8g\L	.
.	.	.	.	.	.	.	.	.	.	.	.	.	.	16GG/	.	.	.	.	.	.	.	.	.	.	.	.	.
.	.	.	.	.	.	.	.	.	.	.	.	.	.	16GG/	.	.	.	.	.	8b\	.	8dd\	.	8f\	.	8g\	.
.	.	.	.	.	.	.	.	.	.	.	.	.	.	16GG/	.	.	.	.	.	.	.	.	.	.	.	.	.
.	.	.	.	.	8F\	.	.	.	.	.	.	.	.	16GG/	.	.	.	.	.	8b\J	.	8dd\J	.	8f\J	.	8g\J	.
.	.	.	.	.	.	.	.	.	.	.	.	.	.	16GG/JJ	.	.	.	.	.	.	.	.	.	.	.	.	.
*	*	*	*	*	*	*	*	*	*	*	*	*	*	*	*	*	*	*	*	*Xtremolo	*	*	*	*Xtremolo	*	*Xtremolo	*
=90	=90	=90	=90	=90	=90	=90	=90	=90	=90	=90	=90	=90	=90	=90	=90	=90	=90	=90	=90	=90	=90	=90	=90	=90	=90	=90	=90
4C/	.	8.C/L	.	.	8.E\L	.	.	4c\	-men	.	4c\	-men	.	8C/	.	8e/	.	8cc\	.	4cc\	.	8.cc\L	.	8.e\L	.	4g\	.
.	.	.	.	.	.	.	.	.	.	.	.	.	.	8r	.	8r	.	8r	.	.	.	.	.	.	.	.	.
.	.	16D/K	.	.	16F\K	.	.	.	.	.	.	.	.	.	.	.	.	.	.	.	.	16dd\K	.	16f\K	.	.	.
8r	.	8E/J	.	.	8G\J	.	.	8r	.	.	8r	.	.	8r	.	8r	.	8r	.	8r	.	8ee\J	.	8g\J	.	8r	.
4r	.	8.E/L	.	.	8.G\L	-men	.	4r	.	.	4r	.	.	8C/	.	8e/	.	8cc\	.	4r	.	8.ee\L	.	8.g\L	.	8.g\L	.
.	.	.	.	.	.	.	.	.	.	.	.	.	.	8r	.	8r	.	8r	.	.	.	.	.	.	.	.	.
.	.	16D/K	.	.	16F\K	.	.	.	.	.	.	.	.	.	.	.	.	.	.	.	.	16dd\K	.	16f\K	.	16f\K	.
8r	.	8C/J	.	.	8E\J	.	.	8r	.	.	8r	.	.	8r	.	8r	.	8r	.	8r	.	8cc\J	.	8e\J	.	8e\J	.
=91	=91	=91	=91	=91	=91	=91	=91	=91	=91	=91	=91	=91	=91	=91	=91	=91	=91	=91	=91	=91	=91	=91	=91	=91	=91	=91	=91
!	!	!	!	!	!	!	!	!	!LO:LB:g=original	!	!	!	!	!	!	!	!LO:LB:g=original	!	!	!	!	!	!	!	!	!	!
*	*	*^	*	*	*	*	*	*	*	*	*	*	*	*	*	*	*	*	*	*	*	*	*	*	*	*	*
4.FF/	.	2.F/	4.FF\	.	.	2.F\	a-	.	(2.A\	a-	.	[2.c\	a-	.	(>16C/LL	.	[>2.c/	.	[2.cc\	.	2.c/	.	[2.cc\	.	2.f\	.	2.a\	.
.	.	.	.	.	.	.	.	.	.	.	.	.	.	.	16C/	.	.	.	.	.	.	.	.	.	.	.	.	.
.	.	.	.	.	.	.	.	.	.	.	.	.	.	.	16C/	.	.	.	.	.	.	.	.	.	.	.	.	.
.	.	.	.	.	.	.	.	.	.	.	.	.	.	.	16C/	.	.	.	.	.	.	.	.	.	.	.	.	.
.	.	.	.	.	.	.	.	.	.	.	.	.	.	.	16C/	.	.	.	.	.	.	.	.	.	.	.	.	.
.	.	.	.	.	.	.	.	.	.	.	.	.	.	.	16C/	.	.	.	.	.	.	.	.	.	.	.	.	.
4.AA/	.	.	4.AA\	.	.	.	.	.	.	.	.	.	.	.	16C/	.	.	.	.	.	.	.	.	.	.	.	.	.
.	.	.	.	.	.	.	.	.	.	.	.	.	.	.	16C/	.	.	.	.	.	.	.	.	.	.	.	.	.
.	.	.	.	.	.	.	.	.	.	.	.	.	.	.	16C/	.	.	.	.	.	.	.	.	.	.	.	.	.
.	.	.	.	.	.	.	.	.	.	.	.	.	.	.	16C/	.	.	.	.	.	.	.	.	.	.	.	.	.
.	.	.	.	.	.	.	.	.	.	.	.	.	.	.	16C/	.	.	.	.	.	.	.	.	.	.	.	.	.
.	.	.	.	.	.	.	.	.	.	.	.	.	.	.	16C/JJ	.	.	.	.	.	.	.	.	.	.	.	.	.
*	*	*v	*v	*	*	*	*	*	*	*	*	*	*	*	*	*	*	*	*	*	*	*	*	*	*	*	*	*
=92	=92	=92	=92	=92	=92	=92	=92	=92	=92	=92	=92	=92	=92	=92	=92	=92	=92	=92	=92	=92	=92	=92	=92	=92	=92	=92	=92
[4.C/	.	4.C/	-men.	.	[4.E\	-men.	.	4.G\)	.	.	4.c\]	.	.	16C/LL)	.	4.c/]	.	4.cc\]	.	[>4.c/	.	4.cc\]	.	[4.e\	.	2g\	.
.	.	.	.	.	.	.	.	.	.	.	.	.	.	16C/	.	.	.	.	.	.	.	.	.	.	.	.	.
.	.	.	.	.	.	.	.	.	.	.	.	.	.	16C/	.	.	.	.	.	.	.	.	.	.	.	.	.
.	.	.	.	.	.	.	.	.	.	.	.	.	.	16C/	.	.	.	.	.	.	.	.	.	.	.	.	.
.	.	.	.	.	.	.	.	.	.	.	.	.	.	16C/	.	.	.	.	.	.	.	.	.	.	.	.	.
.	.	.	.	.	.	.	.	.	.	.	.	.	.	16C/JJ	.	.	.	.	.	.	.	.	.	.	.	.	.
4C/]	.	4C/	.	.	4E\]	.	.	4G\	-men	.	4c\	-men.	.	4C/	.	4c/	.	4cc\	.	4c/]	.	4cc\	.	4e\]	.	.	.
.	.	.	.	.	.	.	.	.	.	.	.	.	.	.	.	.	.	.	.	.	.	.	.	.	.	4r	.
!	!	!	!	!	!	!	!	!	!	!	!	!	!	!	!	!	!	!	!	!	!	!	!	!LO:SIC:o:s=:v:brak pauzy ósemkowej	!	!	!
8r	.	8r	.	.	8r	.	.	8r	.	.	8r	.	.	8r	.	8r	.	8r	.	8r	.	8r	.	8ryy	.	.	.
==	==	==	==	==	==	==	==	==	==	==	==	==	==	==	==	==	==	==	==	==	==	==	==	==	==	==	==
*-	*-	*-	*-	*-	*-	*-	*-	*-	*-	*-	*-	*-	*-	*-	*-	*-	*-	*-	*-	*-	*-	*-	*-	*-	*-	*-	*-
!!!system-decoration: [(s1,s2,s3,s4,s5,s6)]s7[(s8,s9,s10,s11)]s12
!!!RDF**kern: > = above
!!!RDF**kern: < = below
!!!EED: Leszek Kubiak
!!!EST: 2020-06-16
!!!ENC: Andrzej Kubiczek
!!!END: 2020-04-10
